(GCode generated by: DrawingBotV3 1.6.1)
(Time: 2023-07-01 at 10:58:57 CEST)
G21 (programming in millimeters, mm)
G90 (programming in absolute positioning)
G28 (auto homing)
G1 F8000 (set speed)
G0 Z1

G0 X140.000 Y290.000
G1 Z0
G1 X141.000 Y292.000
G1 X154.000 Y294.000
G1 X162.000 Y325.000
G1 X169.000 Y327.000
G1 X173.000 Y327.000
G1 X192.000 Y330.000
G1 X217.000 Y343.000
G1 X245.000 Y341.000
G1 X276.000 Y340.000
G1 X282.000 Y321.000
G1 X302.000 Y318.000
G1 X307.000 Y301.000
G1 X317.000 Y264.000
G1 X322.000 Y250.000
G1 X317.000 Y223.000
G1 X317.000 Y212.000
G1 X300.000 Y206.000
G1 X302.000 Y184.000
G1 X316.000 Y211.000
G1 X315.000 Y243.000
G1 X316.000 Y265.000
G1 X326.000 Y282.000
G1 X328.000 Y257.000
G1 X328.000 Y253.000
G1 X323.000 Y233.000
G1 X318.000 Y216.000
G1 X318.000 Y214.000
G1 X325.000 Y232.000
G1 X326.000 Y243.000
G1 X319.000 Y268.000
G1 X321.000 Y268.000
G1 X328.000 Y249.000
G1 X327.000 Y243.000
G1 X327.000 Y239.000
G1 X311.000 Y231.000
G1 X304.000 Y208.000
G1 X314.000 Y219.000
G1 X317.000 Y233.000
G1 X320.000 Y248.000
G1 X317.000 Y259.000
G1 X320.000 Y260.000
G1 X317.000 Y247.000
G1 X317.000 Y236.000
G1 X316.000 Y238.000
G1 X316.000 Y253.000
G1 X317.000 Y251.000
G1 X320.000 Y244.000
G1 X322.000 Y238.000
G1 X318.000 Y218.000
G1 X312.000 Y216.000
G1 X305.000 Y191.000
G1 X288.000 Y185.000
G1 X288.000 Y166.000
G1 X277.000 Y141.000
G1 X280.000 Y134.000
G1 X274.000 Y124.000
G1 X276.000 Y152.000
G1 X277.000 Y162.000
G1 X280.000 Y162.000
G1 X283.000 Y152.000
G1 X280.000 Y138.000
G1 X260.000 Y105.000
G1 X239.000 Y111.000
G1 X222.000 Y108.000
G1 X200.000 Y111.000
G1 X205.000 Y108.000
G1 X211.000 Y108.000
G1 X237.000 Y106.000
G1 X262.000 Y112.000
G1 X266.000 Y118.000
G1 X244.000 Y111.000
G1 X226.000 Y117.000
G1 X206.000 Y117.000
G1 X184.000 Y121.000
G1 X186.000 Y153.000
G1 X172.000 Y175.000
G1 X165.000 Y195.000
G1 X154.000 Y218.000
G1 X140.000 Y219.000
G1 X150.000 Y224.000
G1 X139.000 Y259.000
G1 X145.000 Y275.000
G1 X151.000 Y293.000
G1 X144.000 Y289.000
G1 X146.000 Y283.000
G1 X134.000 Y278.000
G1 X134.000 Y241.000
G1 X138.000 Y224.000
G1 X151.000 Y230.000
G1 X151.000 Y205.000
G1 X163.000 Y185.000
G1 X179.000 Y148.000
G1 X184.000 Y150.000
G1 X184.000 Y129.000
G1 X200.000 Y119.000
G1 X185.000 Y117.000
G1 X200.000 Y109.000
G1 X202.000 Y109.000
G1 X209.000 Y116.000
G1 X236.000 Y111.000
G1 X258.000 Y119.000
G1 X264.000 Y118.000
G1 X264.000 Y120.000
G1 X271.000 Y125.000
G1 X263.000 Y125.000
G1 X272.000 Y130.000
G1 X269.000 Y148.000
G1 X276.000 Y157.000
G1 X277.000 Y166.000
G1 X283.000 Y167.000
G1 X277.000 Y151.000
G1 X277.000 Y143.000
G1 X279.000 Y142.000
G1 X278.000 Y150.000
G1 X280.000 Y157.000
G1 X290.000 Y162.000
G1 X293.000 Y177.000
G1 X295.000 Y177.000
G1 X292.000 Y165.000
G1 X300.000 Y188.000
G1 X297.000 Y184.000
G1 X295.000 Y179.000
G1 X279.000 Y169.000
G1 X287.000 Y170.000
G1 X283.000 Y160.000
G1 X284.000 Y148.000
G1 X289.000 Y161.000
G1 X285.000 Y158.000
G1 X285.000 Y153.000
G1 X280.000 Y144.000
G1 X278.000 Y136.000
G1 X276.000 Y133.000
G1 X277.000 Y139.000
G1 X266.000 Y138.000
G1 X265.000 Y127.000
G1 X270.000 Y133.000
G1 X276.000 Y115.000
G1 X263.000 Y107.000
G1 X271.000 Y107.000
G1 X271.000 Y109.000
G1 X272.000 Y123.000
G1 X265.000 Y110.000
G1 X238.000 Y105.000
G1 X203.000 Y105.000
G1 X185.000 Y115.000
G1 X197.000 Y118.000
G1 X202.000 Y115.000
G1 X193.000 Y115.000
G1 X200.000 Y110.000
G1 X196.000 Y105.000
G1 X198.000 Y105.000
G1 X205.000 Y109.000
G1 X203.000 Y117.000
G1 X229.000 Y110.000
G1 X238.000 Y107.000
G1 X241.000 Y111.000
G1 X231.000 Y108.000
G1 X233.000 Y107.000
G1 X236.000 Y107.000
G1 X239.000 Y109.000
G1 X251.000 Y105.000
G1 X257.000 Y105.000
G1 X260.000 Y106.000
G1 X267.000 Y105.000
G1 X269.000 Y106.000
G1 X267.000 Y111.000
G1 X271.000 Y117.000
G1 X265.000 Y123.000
G1 X263.000 Y120.000
G1 X257.000 Y116.000
G1 X243.000 Y112.000
G1 X241.000 Y119.000
G1 X212.000 Y119.000
G1 X206.000 Y118.000
G1 X201.000 Y119.000
G1 X195.000 Y105.000
G1 X187.000 Y111.000
G1 X193.000 Y114.000
G1 X219.000 Y112.000
G1 X226.000 Y108.000
G1 X214.000 Y111.000
G1 X206.000 Y112.000
G1 X215.000 Y110.000
G1 X219.000 Y111.000
G1 X225.000 Y116.000
G1 X212.000 Y116.000
G1 X216.000 Y118.000
G1 X240.000 Y118.000
G1 X240.000 Y116.000
G1 X234.000 Y115.000
G1 X230.000 Y113.000
G1 X224.000 Y112.000
G1 X221.000 Y110.000
G1 X219.000 Y109.000
G1 X217.000 Y106.000
G1 X203.000 Y107.000
G1 X202.000 Y105.000
G1 X199.000 Y105.000
G1 X191.000 Y111.000
G1 X194.000 Y113.000
G1 X203.000 Y112.000
G1 X206.000 Y111.000
G1 X208.000 Y111.000
G1 X235.000 Y116.000
G1 X249.000 Y119.000
G1 X255.000 Y119.000
G1 X261.000 Y117.000
G1 X265.000 Y112.000
G1 X267.000 Y115.000
G1 X270.000 Y112.000
G1 X268.000 Y111.000
G1 X274.000 Y116.000
G1 X277.000 Y128.000
G1 X272.000 Y134.000
G1 X275.000 Y153.000
G1 X267.000 Y141.000
G1 X268.000 Y132.000
G1 X270.000 Y135.000
G1 X268.000 Y141.000
G1 X266.000 Y129.000
G1 X268.000 Y126.000
G1 X273.000 Y130.000
G1 X273.000 Y137.000
G1 X274.000 Y135.000
G1 X275.000 Y149.000
G1 X273.000 Y151.000
G1 X271.000 Y139.000
G1 X273.000 Y145.000
G1 X273.000 Y148.000
G1 X280.000 Y137.000
G1 X281.000 Y139.000
G1 X282.000 Y143.000
G1 X284.000 Y147.000
G1 X280.000 Y155.000
G1 X281.000 Y157.000
G1 X285.000 Y169.000
G1 X278.000 Y167.000
G1 X287.000 Y183.000
G1 X286.000 Y174.000
G1 X282.000 Y172.000
G1 X286.000 Y180.000
G1 X296.000 Y184.000
G1 X298.000 Y204.000
G1 X303.000 Y206.000
G1 X308.000 Y207.000
G1 X307.000 Y203.000
G1 X307.000 Y200.000
G1 X302.000 Y194.000
G1 X302.000 Y199.000
G1 X307.000 Y206.000
G1 X304.000 Y205.000
G1 X301.000 Y201.000
G1 X293.000 Y189.000
G1 X297.000 Y201.000
G1 X300.000 Y198.000
G1 X299.000 Y190.000
G1 X301.000 Y180.000
G1 X297.000 Y177.000
G1 X294.000 Y169.000
G1 X289.000 Y184.000
G1 X295.000 Y185.000
G1 X290.000 Y188.000
G1 X295.000 Y198.000
G1 X304.000 Y190.000
G1 X305.000 Y202.000
G1 X303.000 Y205.000
G1 X301.000 Y202.000
G1 X303.000 Y198.000
G1 X303.000 Y192.000
G1 X305.000 Y195.000
G1 X305.000 Y193.000
G1 X310.000 Y201.000
G1 X312.000 Y208.000
G1 X315.000 Y205.000
G1 X308.000 Y194.000
G1 X307.000 Y191.000
G1 X305.000 Y188.000
G1 X302.000 Y182.000
G1 X301.000 Y184.000
G1 X301.000 Y189.000
G1 X300.000 Y191.000
G1 X300.000 Y193.000
G1 X293.000 Y188.000
G1 X295.000 Y188.000
G1 X300.000 Y182.000
G1 X296.000 Y172.000
G1 X282.000 Y163.000
G1 X280.000 Y166.000
G1 X280.000 Y163.000
G1 X278.000 Y163.000
G1 X277.000 Y153.000
G1 X280.000 Y150.000
G1 X281.000 Y147.000
G1 X280.000 Y145.000
G1 X279.000 Y150.000
G1 X281.000 Y155.000
G1 X290.000 Y167.000
G1 X291.000 Y175.000
G1 X289.000 Y168.000
G1 X289.000 Y171.000
G1 X290.000 Y175.000
G1 X289.000 Y173.000
G1 X284.000 Y171.000
G1 X292.000 Y181.000
G1 X296.000 Y183.000
G1 X292.000 Y178.000
G1 X293.000 Y181.000
G1 X284.000 Y174.000
G1 X285.000 Y176.000
G1 X291.000 Y181.000
G1 X291.000 Y183.000
G1 X294.000 Y184.000
G1 X298.000 Y180.000
G1 X299.000 Y177.000
G1 X289.000 Y186.000
G1 X292.000 Y189.000
G1 X293.000 Y192.000
G1 X296.000 Y196.000
G1 X296.000 Y191.000
G1 X299.000 Y196.000
G1 X298.000 Y198.000
G1 X296.000 Y200.000
G1 X305.000 Y213.000
G1 X309.000 Y210.000
G1 X308.000 Y216.000
G1 X313.000 Y231.000
G1 X311.000 Y232.000
G1 X313.000 Y239.000
G1 X313.000 Y242.000
G1 X314.000 Y240.000
G1 X313.000 Y219.000
G1 X309.000 Y215.000
G1 X312.000 Y224.000
G1 X312.000 Y219.000
G1 X310.000 Y220.000
G1 X315.000 Y215.000
G1 X315.000 Y213.000
G1 X310.000 Y206.000
G1 X310.000 Y203.000
G1 X309.000 Y201.000
G1 X311.000 Y200.000
G1 X317.000 Y211.000
G1 X319.000 Y214.000
G1 X318.000 Y225.000
G1 X317.000 Y227.000
G1 X316.000 Y232.000
G1 X316.000 Y236.000
G1 X323.000 Y224.000
G1 X324.000 Y228.000
G1 X322.000 Y233.000
G1 X322.000 Y235.000
G1 X318.000 Y241.000
G1 X318.000 Y247.000
G1 X329.000 Y267.000
G1 X312.000 Y286.000
G1 X318.000 Y288.000
G1 X317.000 Y299.000
G1 X307.000 Y313.000
G1 X307.000 Y307.000
G1 X312.000 Y292.000
G1 X318.000 Y270.000
G1 X322.000 Y294.000
G1 X316.000 Y283.000
G1 X319.000 Y283.000
G1 X319.000 Y279.000
G1 X326.000 Y273.000
G1 X322.000 Y272.000
G1 X326.000 Y263.000
G1 X323.000 Y267.000
G1 X321.000 Y271.000
G1 X320.000 Y269.000
G1 X326.000 Y271.000
G1 X323.000 Y268.000
G1 X321.000 Y265.000
G1 X322.000 Y261.000
G1 X327.000 Y247.000
G1 X328.000 Y245.000
G1 X327.000 Y262.000
G1 X326.000 Y257.000
G1 X323.000 Y250.000
G1 X322.000 Y240.000
G1 X324.000 Y244.000
G1 X324.000 Y248.000
G1 X325.000 Y250.000
G1 X326.000 Y253.000
G1 X326.000 Y251.000
G1 X323.000 Y283.000
G1 X322.000 Y289.000
G1 X308.000 Y309.000
G1 X312.000 Y311.000
G1 X315.000 Y303.000
G1 X319.000 Y300.000
G1 X321.000 Y294.000
G1 X313.000 Y293.000
G1 X312.000 Y302.000
G1 X288.000 Y316.000
G1 X297.000 Y317.000
G1 X301.000 Y309.000
G1 X293.000 Y315.000
G1 X297.000 Y316.000
G1 X300.000 Y322.000
G1 X296.000 Y322.000
G1 X291.000 Y319.000
G1 X288.000 Y319.000
G1 X288.000 Y317.000
G1 X297.000 Y318.000
G1 X310.000 Y314.000
G1 X301.000 Y323.000
G1 X283.000 Y325.000
G1 X293.000 Y330.000
G1 X278.000 Y339.000
G1 X260.000 Y332.000
G1 X263.000 Y337.000
G1 X238.000 Y336.000
G1 X228.000 Y341.000
G1 X210.000 Y335.000
G1 X200.000 Y332.000
G1 X188.000 Y342.000
G1 X204.000 Y342.000
G1 X211.000 Y344.000
G1 X241.000 Y346.000
G1 X251.000 Y348.000
G1 X270.000 Y343.000
G1 X245.000 Y342.000
G1 X248.000 Y346.000
G1 X234.000 Y343.000
G1 X226.000 Y344.000
G1 X213.000 Y337.000
G1 X210.000 Y337.000
G1 X201.000 Y334.000
G1 X193.000 Y341.000
G1 X210.000 Y340.000
G1 X215.000 Y343.000
G1 X196.000 Y344.000
G1 X173.000 Y331.000
G1 X191.000 Y335.000
G1 X164.000 Y308.000
G1 X161.000 Y316.000
G1 X172.000 Y318.000
G1 X170.000 Y325.000
G1 X156.000 Y298.000
G1 X155.000 Y302.000
G1 X160.000 Y322.000
G1 X149.000 Y309.000
G1 X141.000 Y293.000
G1 X154.000 Y301.000
G1 X153.000 Y295.000
G1 X146.000 Y295.000
G1 X156.000 Y309.000
G1 X154.000 Y317.000
G1 X160.000 Y324.000
G1 X154.000 Y307.000
G1 X143.000 Y296.000
G1 X145.000 Y291.000
G1 X134.000 Y279.000
G1 X144.000 Y274.000
G1 X138.000 Y263.000
G1 X138.000 Y243.000
G1 X141.000 Y232.000
G1 X146.000 Y257.000
G1 X145.000 Y271.000
G1 X148.000 Y276.000
G1 X149.000 Y285.000
G1 X154.000 Y291.000
G1 X140.000 Y284.000
G1 X138.000 Y291.000
G1 X145.000 Y304.000
G1 X147.000 Y298.000
G1 X151.000 Y303.000
G1 X147.000 Y307.000
G1 X149.000 Y311.000
G1 X152.000 Y315.000
G1 X154.000 Y309.000
G1 X150.000 Y309.000
G1 X148.000 Y304.000
G1 X151.000 Y305.000
G1 X153.000 Y308.000
G1 X150.000 Y307.000
G1 X155.000 Y293.000
G1 X141.000 Y286.000
G1 X144.000 Y275.000
G1 X137.000 Y278.000
G1 X139.000 Y261.000
G1 X144.000 Y251.000
G1 X148.000 Y241.000
G1 X147.000 Y236.000
G1 X137.000 Y226.000
G1 X150.000 Y233.000
G1 X137.000 Y231.000
G1 X135.000 Y246.000
G1 X137.000 Y255.000
G1 X135.000 Y264.000
G0 Z1
G0 X132.000 Y256.000
G1 Z0
G1 X133.000 Y258.000
G1 X134.000 Y262.000
G1 X136.000 Y265.000
G1 X138.000 Y262.000
G1 X139.000 Y252.000
G1 X138.000 Y256.000
G1 X139.000 Y258.000
G1 X137.000 Y256.000
G1 X137.000 Y259.000
G1 X141.000 Y263.000
G1 X142.000 Y261.000
G1 X145.000 Y257.000
G1 X143.000 Y253.000
G1 X146.000 Y250.000
G1 X146.000 Y252.000
G1 X145.000 Y254.000
G1 X141.000 Y256.000
G1 X142.000 Y254.000
G1 X143.000 Y247.000
G1 X144.000 Y249.000
G1 X144.000 Y251.000
G1 X146.000 Y249.000
G1 X145.000 Y246.000
G1 X138.000 Y241.000
G1 X143.000 Y240.000
G0 Z1
G0 X143.000 Y242.000
G1 Z0
G1 X142.000 Y240.000
G1 X142.000 Y242.000
G1 X141.000 Y245.000
G1 X139.000 Y237.000
G1 X139.000 Y235.000
G1 X140.000 Y233.000
G1 X147.000 Y243.000
G1 X147.000 Y245.000
G1 X145.000 Y246.000
G1 X143.000 Y248.000
G1 X143.000 Y251.000
G1 X139.000 Y247.000
G1 X144.000 Y276.000
G1 X148.000 Y281.000
G1 X146.000 Y288.000
G1 X146.000 Y290.000
G1 X148.000 Y293.000
G1 X154.000 Y306.000
G1 X157.000 Y306.000
G1 X155.000 Y309.000
G1 X142.000 Y299.000
G1 X142.000 Y292.000
G1 X144.000 Y294.000
G1 X146.000 Y293.000
G1 X144.000 Y285.000
G1 X141.000 Y283.000
G1 X144.000 Y291.000
G1 X140.000 Y287.000
G0 Z1
G0 X140.000 Y289.000
G1 Z0
G1 X140.000 Y291.000
G1 X148.000 Y292.000
G1 X152.000 Y297.000
G1 X150.000 Y297.000
G1 X152.000 Y299.000
G1 X151.000 Y301.000
G1 X145.000 Y305.000
G1 X147.000 Y305.000
G1 X148.000 Y300.000
G1 X147.000 Y302.000
G1 X145.000 Y296.000
G1 X142.000 Y300.000
G1 X144.000 Y304.000
G1 X147.000 Y308.000
G1 X160.000 Y302.000
G1 X156.000 Y297.000
G1 X156.000 Y295.000
G1 X154.000 Y296.000
G1 X150.000 Y296.000
G1 X146.000 Y282.000
G1 X151.000 Y285.000
G1 X149.000 Y279.000
G1 X141.000 Y261.000
G1 X143.000 Y256.000
G1 X142.000 Y253.000
G1 X132.000 Y253.000
G1 X132.000 Y267.000
G1 X137.000 Y263.000
G1 X137.000 Y258.000
G1 X135.000 Y255.000
G1 X135.000 Y261.000
G1 X137.000 Y268.000
G1 X135.000 Y272.000
G1 X135.000 Y277.000
G1 X136.000 Y275.000
G1 X136.000 Y272.000
G1 X141.000 Y267.000
G1 X140.000 Y263.000
G1 X146.000 Y253.000
G1 X146.000 Y248.000
G1 X147.000 Y246.000
G1 X139.000 Y251.000
G1 X140.000 Y258.000
G1 X143.000 Y263.000
G1 X143.000 Y259.000
G1 X145.000 Y256.000
G1 X145.000 Y259.000
G1 X146.000 Y271.000
G1 X147.000 Y269.000
G1 X147.000 Y272.000
G1 X148.000 Y275.000
G1 X137.000 Y283.000
G1 X138.000 Y285.000
G1 X136.000 Y283.000
G1 X138.000 Y279.000
G1 X141.000 Y279.000
G1 X141.000 Y277.000
G1 X143.000 Y281.000
G1 X139.000 Y283.000
G1 X142.000 Y280.000
G1 X139.000 Y281.000
G1 X146.000 Y285.000
G1 X147.000 Y288.000
G1 X147.000 Y290.000
G1 X145.000 Y289.000
G1 X140.000 Y296.000
G1 X144.000 Y298.000
G1 X146.000 Y297.000
G1 X145.000 Y300.000
G1 X143.000 Y302.000
G0 Z1
G0 X141.000 Y298.000
G1 Z0
G1 X141.000 Y296.000
G1 X139.000 Y294.000
G1 X141.000 Y292.000
G1 X141.000 Y295.000
G1 X148.000 Y291.000
G1 X146.000 Y291.000
G1 X150.000 Y283.000
G1 X150.000 Y281.000
G1 X148.000 Y282.000
G1 X147.000 Y284.000
G1 X139.000 Y284.000
G1 X136.000 Y286.000
G1 X139.000 Y287.000
G1 X143.000 Y292.000
G1 X150.000 Y304.000
G1 X154.000 Y303.000
G1 X152.000 Y298.000
G1 X152.000 Y295.000
G1 X156.000 Y295.000
G1 X157.000 Y298.000
G1 X155.000 Y298.000
G1 X158.000 Y305.000
G1 X162.000 Y304.000
G1 X160.000 Y307.000
G0 Z1
G0 X158.000 Y306.000
G1 Z0
G1 X157.000 Y310.000
G1 X161.000 Y303.000
G1 X158.000 Y304.000
G1 X154.000 Y299.000
G1 X155.000 Y297.000
G1 X151.000 Y298.000
G1 X154.000 Y298.000
G1 X159.000 Y301.000
G1 X158.000 Y299.000
G1 X147.000 Y302.000
G1 X149.000 Y303.000
G1 X149.000 Y305.000
G1 X147.000 Y306.000
G1 X145.000 Y298.000
G1 X144.000 Y300.000
G1 X143.000 Y295.000
G1 X143.000 Y293.000
G1 X146.000 Y294.000
G1 X144.000 Y296.000
G1 X149.000 Y296.000
G1 X150.000 Y306.000
G1 X148.000 Y306.000
G1 X149.000 Y308.000
G1 X151.000 Y308.000
G1 X151.000 Y310.000
G1 X153.000 Y313.000
G1 X156.000 Y311.000
G1 X153.000 Y309.000
G1 X157.000 Y307.000
G1 X162.000 Y309.000
G1 X164.000 Y307.000
G1 X162.000 Y307.000
G1 X166.000 Y311.000
G1 X168.000 Y315.000
G1 X163.000 Y318.000
G1 X162.000 Y316.000
G1 X159.000 Y318.000
G1 X159.000 Y316.000
G1 X157.000 Y313.000
G1 X155.000 Y314.000
G1 X150.000 Y311.000
G1 X152.000 Y305.000
G1 X153.000 Y307.000
G1 X156.000 Y308.000
G1 X160.000 Y313.000
G1 X163.000 Y311.000
G1 X164.000 Y324.000
G1 X165.000 Y326.000
G1 X163.000 Y325.000
G1 X163.000 Y323.000
G0 Z1
G0 X166.000 Y320.000
G1 Z0
G1 X168.000 Y318.000
G1 X170.000 Y322.000
G1 X168.000 Y321.000
G1 X156.000 Y320.000
G0 Z1
G0 X160.000 Y315.000
G1 Z0
G1 X161.000 Y313.000
G1 X159.000 Y305.000
G1 X157.000 Y301.000
G1 X162.000 Y304.000
G1 X164.000 Y312.000
G1 X171.000 Y317.000
G1 X162.000 Y320.000
G1 X170.000 Y326.000
G1 X178.000 Y324.000
G1 X174.000 Y319.000
G1 X165.000 Y311.000
G1 X170.000 Y323.000
G1 X172.000 Y326.000
G1 X178.000 Y325.000
G1 X179.000 Y327.000
G1 X183.000 Y325.000
G1 X192.000 Y328.000
G1 X195.000 Y331.000
G1 X199.000 Y332.000
G1 X196.000 Y330.000
G1 X194.000 Y329.000
G1 X190.000 Y332.000
G1 X194.000 Y332.000
G1 X204.000 Y339.000
G1 X196.000 Y339.000
G1 X204.000 Y337.000
G1 X207.000 Y339.000
G1 X211.000 Y338.000
G1 X213.000 Y338.000
G1 X215.000 Y340.000
G1 X211.000 Y339.000
G1 X213.000 Y340.000
G1 X205.000 Y343.000
G1 X184.000 Y330.000
G1 X182.000 Y330.000
G1 X180.000 Y329.000
G1 X177.000 Y329.000
G1 X173.000 Y320.000
G1 X176.000 Y323.000
G1 X181.000 Y322.000
G1 X183.000 Y323.000
G1 X185.000 Y328.000
G1 X192.000 Y329.000
G1 X189.000 Y328.000
G1 X188.000 Y331.000
G1 X190.000 Y331.000
G1 X188.000 Y333.000
G1 X183.000 Y339.000
G1 X178.000 Y337.000
G1 X175.000 Y335.000
G1 X163.000 Y326.000
G1 X167.000 Y321.000
G1 X168.000 Y324.000
G1 X161.000 Y317.000
G1 X165.000 Y318.000
G1 X161.000 Y309.000
G1 X162.000 Y307.000
G1 X161.000 Y304.000
G1 X173.000 Y316.000
G1 X170.000 Y320.000
G1 X174.000 Y324.000
G1 X172.000 Y323.000
G1 X175.000 Y326.000
G1 X171.000 Y329.000
G1 X167.000 Y328.000
G1 X166.000 Y324.000
G1 X168.000 Y326.000
G1 X162.000 Y323.000
G1 X165.000 Y320.000
G1 X168.000 Y320.000
G1 X170.000 Y319.000
G1 X173.000 Y322.000
G1 X175.000 Y323.000
G1 X174.000 Y317.000
G1 X176.000 Y319.000
G1 X179.000 Y321.000
G1 X177.000 Y322.000
G1 X177.000 Y319.000
G1 X175.000 Y320.000
G1 X148.000 Y310.000
G1 X154.000 Y311.000
G1 X152.000 Y310.000
G1 X153.000 Y302.000
G1 X155.000 Y305.000
G1 X154.000 Y302.000
G1 X135.000 Y283.000
G1 X140.000 Y293.000
G1 X145.000 Y280.000
G1 X146.000 Y274.000
G1 X147.000 Y277.000
G1 X147.000 Y279.000
G1 X145.000 Y282.000
G1 X135.000 Y266.000
G1 X135.000 Y270.000
G1 X139.000 Y275.000
G1 X144.000 Y265.000
G1 X144.000 Y253.000
G1 X139.000 Y250.000
G1 X141.000 Y240.000
G1 X141.000 Y236.000
G1 X142.000 Y233.000
G1 X145.000 Y237.000
G1 X147.000 Y242.000
G1 X145.000 Y245.000
G1 X149.000 Y234.000
G1 X145.000 Y233.000
G1 X143.000 Y235.000
G1 X143.000 Y239.000
G1 X145.000 Y243.000
G1 X139.000 Y243.000
G1 X137.000 Y236.000
G1 X139.000 Y232.000
G1 X145.000 Y229.000
G1 X151.000 Y231.000
G1 X145.000 Y208.000
G1 X143.000 Y217.000
G1 X141.000 Y216.000
G1 X143.000 Y213.000
G1 X144.000 Y215.000
G1 X141.000 Y218.000
G1 X143.000 Y218.000
G1 X140.000 Y227.000
G1 X143.000 Y227.000
G1 X144.000 Y225.000
G1 X141.000 Y226.000
G1 X142.000 Y224.000
G1 X139.000 Y223.000
G1 X140.000 Y220.000
G1 X144.000 Y222.000
G1 X154.000 Y220.000
G1 X155.000 Y217.000
G1 X157.000 Y214.000
G1 X154.000 Y215.000
G1 X159.000 Y206.000
G1 X155.000 Y205.000
G1 X152.000 Y206.000
G1 X148.000 Y209.000
G1 X149.000 Y206.000
G1 X151.000 Y203.000
G1 X154.000 Y199.000
G1 X154.000 Y201.000
G1 X158.000 Y196.000
G1 X157.000 Y198.000
G1 X153.000 Y194.000
G1 X156.000 Y192.000
G1 X154.000 Y190.000
G1 X157.000 Y188.000
G1 X157.000 Y185.000
G1 X156.000 Y187.000
G1 X163.000 Y183.000
G1 X164.000 Y181.000
G1 X162.000 Y177.000
G1 X166.000 Y172.000
G1 X167.000 Y170.000
G1 X176.000 Y157.000
G1 X175.000 Y161.000
G1 X178.000 Y163.000
G1 X178.000 Y161.000
G1 X179.000 Y159.000
G1 X177.000 Y154.000
G1 X180.000 Y154.000
G1 X180.000 Y145.000
G1 X179.000 Y143.000
G1 X178.000 Y148.000
G1 X176.000 Y150.000
G0 Z1
G0 X178.000 Y153.000
G1 Z0
G1 X177.000 Y151.000
G1 X171.000 Y163.000
G1 X173.000 Y157.000
G1 X172.000 Y168.000
G1 X174.000 Y170.000
G1 X173.000 Y168.000
G1 X171.000 Y165.000
G1 X167.000 Y173.000
G1 X165.000 Y172.000
G1 X165.000 Y174.000
G1 X167.000 Y177.000
G1 X169.000 Y175.000
G1 X168.000 Y178.000
G1 X169.000 Y190.000
G1 X169.000 Y193.000
G1 X167.000 Y191.000
G1 X166.000 Y195.000
G1 X171.000 Y189.000
G1 X170.000 Y191.000
G1 X165.000 Y197.000
G1 X163.000 Y195.000
G1 X164.000 Y193.000
G1 X160.000 Y189.000
G0 Z1
G0 X160.000 Y186.000
G1 Z0
G1 X162.000 Y188.000
G1 X164.000 Y186.000
G1 X164.000 Y184.000
G1 X163.000 Y182.000
G1 X161.000 Y179.000
G1 X160.000 Y182.000
G1 X158.000 Y184.000
G1 X161.000 Y194.000
G1 X161.000 Y197.000
G1 X162.000 Y204.000
G1 X159.000 Y205.000
G1 X160.000 Y207.000
G1 X161.000 Y205.000
G1 X157.000 Y199.000
G1 X159.000 Y196.000
G1 X153.000 Y192.000
G1 X157.000 Y190.000
G1 X158.000 Y193.000
G1 X149.000 Y202.000
G1 X150.000 Y199.000
G1 X153.000 Y197.000
G1 X152.000 Y195.000
G1 X155.000 Y194.000
G1 X149.000 Y199.000
G1 X147.000 Y206.000
G1 X145.000 Y207.000
G0 Z1
G0 X150.000 Y207.000
G1 Z0
G1 X150.000 Y205.000
G1 X146.000 Y205.000
G1 X147.000 Y207.000
G1 X147.000 Y212.000
G1 X148.000 Y214.000
G1 X149.000 Y217.000
G1 X152.000 Y215.000
G1 X154.000 Y221.000
G1 X152.000 Y219.000
G1 X150.000 Y220.000
G1 X150.000 Y223.000
G1 X148.000 Y222.000
G1 X145.000 Y220.000
G1 X143.000 Y220.000
G1 X146.000 Y216.000
G1 X146.000 Y218.000
G1 X144.000 Y209.000
G1 X149.000 Y213.000
G1 X150.000 Y211.000
G1 X152.000 Y212.000
G1 X154.000 Y214.000
G1 X157.000 Y215.000
G1 X160.000 Y209.000
G1 X156.000 Y208.000
G1 X157.000 Y206.000
G1 X155.000 Y207.000
G1 X153.000 Y207.000
G1 X150.000 Y209.000
G1 X155.000 Y219.000
G1 X153.000 Y219.000
G1 X151.000 Y223.000
G0 Z1
G0 X145.000 Y226.000
G1 Z0
G1 X143.000 Y228.000
G1 X147.000 Y232.000
G1 X145.000 Y225.000
G1 X138.000 Y229.000
G1 X143.000 Y212.000
G1 X145.000 Y211.000
G1 X150.000 Y215.000
G1 X150.000 Y217.000
G1 X146.000 Y214.000
G1 X145.000 Y216.000
G1 X152.000 Y224.000
G1 X149.000 Y229.000
G1 X146.000 Y226.000
G1 X147.000 Y223.000
G1 X143.000 Y223.000
G1 X144.000 Y220.000
G1 X145.000 Y218.000
G1 X143.000 Y214.000
G1 X144.000 Y212.000
G1 X158.000 Y209.000
G1 X153.000 Y213.000
G1 X167.000 Y185.000
G1 X167.000 Y189.000
G1 X172.000 Y188.000
G1 X174.000 Y183.000
G1 X174.000 Y181.000
G1 X176.000 Y180.000
G0 Z1
G0 X178.000 Y171.000
G1 Z0
G1 X179.000 Y169.000
G1 X175.000 Y171.000
G1 X180.000 Y173.000
G1 X178.000 Y177.000
G1 X171.000 Y173.000
G1 X166.000 Y175.000
G1 X178.000 Y163.000
G1 X176.000 Y164.000
G1 X174.000 Y159.000
G1 X174.000 Y155.000
G1 X176.000 Y160.000
G1 X181.000 Y155.000
G1 X181.000 Y153.000
G1 X182.000 Y151.000
G1 X181.000 Y140.000
G1 X185.000 Y144.000
G1 X183.000 Y147.000
G1 X189.000 Y155.000
G1 X185.000 Y159.000
G1 X181.000 Y160.000
G1 X176.000 Y152.000
G1 X183.000 Y157.000
G1 X184.000 Y150.000
G1 X182.000 Y152.000
G1 X180.000 Y156.000
G0 Z1
G0 X180.000 Y160.000
G1 Z0
G1 X181.000 Y162.000
G1 X179.000 Y164.000
G1 X178.000 Y168.000
G1 X180.000 Y165.000
G1 X182.000 Y168.000
G1 X183.000 Y166.000
G1 X181.000 Y168.000
G1 X171.000 Y162.000
G1 X163.000 Y176.000
G1 X163.000 Y178.000
G1 X165.000 Y177.000
G1 X169.000 Y176.000
G1 X170.000 Y178.000
G1 X176.000 Y179.000
G1 X173.000 Y185.000
G1 X170.000 Y179.000
G1 X161.000 Y190.000
G1 X157.000 Y186.000
G1 X159.000 Y183.000
G1 X160.000 Y181.000
G1 X167.000 Y188.000
G1 X167.000 Y196.000
G1 X165.000 Y200.000
G1 X160.000 Y197.000
G0 Z1
G0 X149.000 Y200.000
G1 Z0
G1 X151.000 Y201.000
G1 X151.000 Y196.000
G1 X156.000 Y194.000
G1 X155.000 Y192.000
G1 X161.000 Y187.000
G1 X160.000 Y184.000
G1 X162.000 Y185.000
G1 X156.000 Y188.000
G1 X162.000 Y181.000
G1 X160.000 Y180.000
G1 X169.000 Y178.000
G1 X170.000 Y176.000
G1 X172.000 Y173.000
G1 X171.000 Y171.000
G1 X173.000 Y169.000
G1 X173.000 Y164.000
G1 X171.000 Y164.000
G1 X175.000 Y168.000
G1 X174.000 Y166.000
G1 X175.000 Y153.000
G1 X176.000 Y156.000
G1 X176.000 Y158.000
G1 X175.000 Y160.000
G1 X174.000 Y174.000
G1 X172.000 Y171.000
G1 X171.000 Y169.000
G0 Z1
G0 X171.000 Y170.000
G1 Z0
G1 X170.000 Y172.000
G1 X167.000 Y168.000
G1 X168.000 Y170.000
G1 X165.000 Y175.000
G1 X172.000 Y179.000
G1 X170.000 Y181.000
G1 X169.000 Y179.000
G1 X166.000 Y180.000
G1 X159.000 Y192.000
G1 X158.000 Y188.000
G1 X155.000 Y190.000
G1 X152.000 Y194.000
G1 X155.000 Y195.000
G1 X151.000 Y199.000
G1 X155.000 Y204.000
G1 X156.000 Y202.000
G1 X160.000 Y209.000
G1 X158.000 Y210.000
G1 X162.000 Y205.000
G1 X163.000 Y200.000
G1 X157.000 Y196.000
G1 X162.000 Y192.000
G1 X168.000 Y190.000
G1 X169.000 Y183.000
G1 X171.000 Y183.000
G1 X170.000 Y185.000
G1 X168.000 Y183.000
G1 X168.000 Y186.000
G1 X170.000 Y189.000
G1 X170.000 Y191.000
G0 Z1
G0 X161.000 Y181.000
G1 Z0
G1 X160.000 Y183.000
G1 X167.000 Y178.000
G1 X163.000 Y175.000
G1 X164.000 Y177.000
G1 X165.000 Y181.000
G1 X172.000 Y182.000
G1 X170.000 Y187.000
G1 X173.000 Y184.000
G1 X178.000 Y155.000
G1 X182.000 Y159.000
G1 X182.000 Y161.000
G1 X186.000 Y162.000
G1 X182.000 Y169.000
G1 X176.000 Y171.000
G1 X176.000 Y178.000
G1 X180.000 Y172.000
G1 X181.000 Y167.000
G1 X162.000 Y178.000
G1 X164.000 Y179.000
G1 X151.000 Y206.000
G1 X148.000 Y207.000
G1 X150.000 Y210.000
G1 X147.000 Y210.000
G1 X151.000 Y214.000
G1 X146.000 Y215.000
G0 Z1
G0 X143.000 Y217.000
G1 Z0
G1 X141.000 Y217.000
G1 X144.000 Y230.000
G1 X159.000 Y211.000
G1 X155.000 Y212.000
G1 X155.000 Y219.000
G1 X149.000 Y222.000
G1 X147.000 Y203.000
G1 X149.000 Y201.000
G1 X151.000 Y203.000
G1 X148.000 Y205.000
G1 X153.000 Y193.000
G1 X155.000 Y191.000
G1 X152.000 Y197.000
G1 X152.000 Y203.000
G1 X149.000 Y207.000
G1 X152.000 Y207.000
G1 X153.000 Y209.000
G1 X160.000 Y203.000
G1 X158.000 Y207.000
G1 X160.000 Y206.000
G1 X161.000 Y203.000
G1 X156.000 Y197.000
G1 X153.000 Y205.000
G1 X155.000 Y206.000
G1 X153.000 Y208.000
G0 Z1
G0 X150.000 Y207.000
G1 Z0
G1 X147.000 Y204.000
G1 X150.000 Y203.000
G1 X152.000 Y205.000
G1 X154.000 Y209.000
G1 X151.000 Y209.000
G1 X145.000 Y207.000
G1 X146.000 Y209.000
G1 X144.000 Y210.000
G1 X148.000 Y206.000
G1 X154.000 Y198.000
G1 X159.000 Y203.000
G1 X161.000 Y202.000
G1 X162.000 Y200.000
G1 X164.000 Y199.000
G1 X164.000 Y197.000
G1 X154.000 Y206.000
G1 X157.000 Y212.000
G1 X152.000 Y211.000
G1 X154.000 Y213.000
G1 X149.000 Y217.000
G1 X151.000 Y219.000
G1 X151.000 Y217.000
G1 X142.000 Y225.000
G1 X144.000 Y224.000
G1 X146.000 Y224.000
G1 X145.000 Y227.000
G0 Z1
G0 X141.000 Y231.000
G1 Z0
G1 X148.000 Y239.000
G1 X149.000 Y235.000
G1 X143.000 Y244.000
G1 X145.000 Y247.000
G1 X145.000 Y253.000
G1 X141.000 Y255.000
G1 X145.000 Y261.000
G1 X143.000 Y264.000
G1 X145.000 Y274.000
G1 X146.000 Y270.000
G1 X146.000 Y254.000
G1 X136.000 Y263.000
G1 X136.000 Y258.000
G1 X137.000 Y245.000
G1 X133.000 Y245.000
G1 X138.000 Y234.000
G1 X140.000 Y237.000
G1 X137.000 Y231.000
G1 X135.000 Y233.000
G1 X140.000 Y232.000
G1 X137.000 Y229.000
G1 X139.000 Y227.000
G1 X138.000 Y225.000
G1 X140.000 Y224.000
G0 Z1
G0 X142.000 Y222.000
G1 Z0
G1 X140.000 Y225.000
G1 X138.000 Y226.000
G1 X137.000 Y228.000
G1 X137.000 Y226.000
G1 X142.000 Y234.000
G1 X147.000 Y231.000
G1 X151.000 Y231.000
G1 X141.000 Y244.000
G1 X133.000 Y242.000
G1 X135.000 Y239.000
G1 X135.000 Y235.000
G1 X138.000 Y240.000
G1 X140.000 Y234.000
G1 X145.000 Y213.000
G1 X147.000 Y214.000
G1 X150.000 Y212.000
G1 X141.000 Y216.000
G1 X142.000 Y218.000
G1 X139.000 Y222.000
G1 X143.000 Y229.000
G1 X142.000 Y231.000
G1 X144.000 Y233.000
G1 X142.000 Y235.000
G1 X139.000 Y233.000
G1 X140.000 Y235.000
G0 Z1
G0 X140.000 Y240.000
G1 Z0
G1 X140.000 Y238.000
G1 X138.000 Y236.000
G1 X137.000 Y240.000
G1 X136.000 Y248.000
G1 X137.000 Y246.000
G1 X137.000 Y252.000
G1 X132.000 Y252.000
G1 X133.000 Y248.000
G1 X133.000 Y241.000
G1 X134.000 Y238.000
G1 X135.000 Y234.000
G1 X137.000 Y235.000
G1 X139.000 Y229.000
G1 X136.000 Y230.000
G1 X140.000 Y230.000
G1 X145.000 Y231.000
G1 X147.000 Y229.000
G1 X153.000 Y221.000
G1 X153.000 Y224.000
G1 X152.000 Y226.000
G1 X152.000 Y228.000
G1 X149.000 Y231.000
G1 X148.000 Y235.000
G1 X146.000 Y234.000
G1 X144.000 Y238.000
G1 X144.000 Y240.000
G1 X136.000 Y243.000
G1 X135.000 Y241.000
G1 X135.000 Y239.000
G1 X141.000 Y247.000
G1 X142.000 Y244.000
G1 X142.000 Y247.000
G1 X140.000 Y249.000
G1 X140.000 Y247.000
G1 X139.000 Y245.000
G1 X137.000 Y244.000
G1 X135.000 Y249.000
G1 X133.000 Y251.000
G1 X133.000 Y274.000
G1 X143.000 Y271.000
G1 X141.000 Y273.000
G1 X138.000 Y264.000
G1 X137.000 Y266.000
G1 X137.000 Y264.000
G1 X144.000 Y277.000
G1 X144.000 Y279.000
G1 X139.000 Y271.000
G1 X139.000 Y269.000
G1 X137.000 Y281.000
G1 X135.000 Y279.000
G1 X140.000 Y295.000
G0 Z1
G0 X141.000 Y298.000
G1 Z0
G1 X143.000 Y299.000
G1 X144.000 Y302.000
G1 X144.000 Y304.000
G1 X148.000 Y303.000
G1 X147.000 Y300.000
G1 X145.000 Y297.000
G1 X144.000 Y295.000
G1 X150.000 Y299.000
G1 X150.000 Y301.000
G1 X153.000 Y299.000
G1 X151.000 Y284.000
G1 X148.000 Y283.000
G1 X152.000 Y289.000
G1 X148.000 Y289.000
G1 X150.000 Y288.000
G1 X149.000 Y286.000
G1 X147.000 Y285.000
G1 X133.000 Y272.000
G1 X133.000 Y270.000
G1 X138.000 Y271.000
G1 X142.000 Y273.000
G1 X146.000 Y259.000
G1 X141.000 Y254.000
G1 X136.000 Y255.000
G1 X137.000 Y253.000
G0 Z1
G0 X133.000 Y246.000
G1 Z0
G1 X135.000 Y250.000
G1 X135.000 Y253.000
G1 X133.000 Y261.000
G1 X134.000 Y270.000
G1 X136.000 Y279.000
G1 X135.000 Y281.000
G1 X136.000 Y285.000
G1 X137.000 Y288.000
G1 X140.000 Y280.000
G1 X138.000 Y278.000
G1 X141.000 Y278.000
G1 X143.000 Y276.000
G1 X139.000 Y273.000
G1 X140.000 Y275.000
G1 X140.000 Y279.000
G1 X137.000 Y274.000
G1 X136.000 Y278.000
G1 X141.000 Y285.000
G1 X138.000 Y287.000
G1 X137.000 Y289.000
G1 X145.000 Y285.000
G1 X143.000 Y282.000
G1 X148.000 Y278.000
G1 X150.000 Y286.000
G1 X148.000 Y287.000
G1 X148.000 Y284.000
G1 X146.000 Y281.000
G1 X148.000 Y281.000
G1 X137.000 Y284.000
G1 X139.000 Y280.000
G1 X137.000 Y283.000
G1 X133.000 Y273.000
G1 X135.000 Y272.000
G1 X140.000 Y275.000
G1 X149.000 Y280.000
G1 X147.000 Y271.000
G1 X139.000 Y264.000
G1 X140.000 Y267.000
G1 X132.000 Y251.000
G1 X134.000 Y247.000
G1 X132.000 Y256.000
G1 X135.000 Y260.000
G1 X134.000 Y263.000
G1 X138.000 Y266.000
G1 X132.000 Y266.000
G1 X148.000 Y274.000
G1 X140.000 Y282.000
G1 X145.000 Y283.000
G1 X144.000 Y285.000
G0 Z1
G0 X150.000 Y292.000
G1 Z0
G1 X151.000 Y290.000
G1 X153.000 Y293.000
G1 X147.000 Y294.000
G1 X149.000 Y289.000
G1 X152.000 Y287.000
G1 X150.000 Y285.000
G1 X153.000 Y289.000
G1 X148.000 Y286.000
G1 X153.000 Y291.000
G1 X156.000 Y296.000
G1 X162.000 Y308.000
G1 X167.000 Y311.000
G1 X165.000 Y312.000
G1 X169.000 Y312.000
G1 X170.000 Y315.000
G1 X168.000 Y313.000
G1 X165.000 Y314.000
G1 X168.000 Y316.000
G1 X164.000 Y315.000
G1 X156.000 Y310.000
G1 X157.000 Y312.000
G1 X159.000 Y311.000
G1 X162.000 Y306.000
G1 X160.000 Y307.000
G1 X158.000 Y305.000
G1 X159.000 Y309.000
G1 X160.000 Y311.000
G1 X160.000 Y313.000
G0 Z1
G0 X165.000 Y313.000
G1 Z0
G1 X163.000 Y315.000
G1 X161.000 Y319.000
G1 X169.000 Y319.000
G1 X169.000 Y326.000
G1 X171.000 Y327.000
G1 X169.000 Y329.000
G1 X172.000 Y332.000
G1 X172.000 Y330.000
G1 X183.000 Y332.000
G1 X186.000 Y333.000
G1 X180.000 Y321.000
G1 X178.000 Y321.000
G1 X197.000 Y332.000
G1 X197.000 Y330.000
G1 X199.000 Y333.000
G1 X197.000 Y334.000
G1 X195.000 Y330.000
G1 X191.000 Y333.000
G1 X194.000 Y335.000
G1 X208.000 Y335.000
G1 X209.000 Y341.000
G1 X206.000 Y342.000
G1 X206.000 Y340.000
G1 X198.000 Y344.000
G1 X197.000 Y340.000
G1 X206.000 Y346.000
G1 X201.000 Y345.000
G1 X199.000 Y346.000
G1 X192.000 Y340.000
G0 Z1
G0 X190.000 Y339.000
G1 Z0
G1 X192.000 Y337.000
G1 X195.000 Y338.000
G1 X192.000 Y341.000
G1 X193.000 Y339.000
G1 X191.000 Y337.000
G1 X187.000 Y336.000
G1 X186.000 Y341.000
G1 X179.000 Y335.000
G1 X181.000 Y334.000
G1 X183.000 Y336.000
G1 X186.000 Y337.000
G1 X187.000 Y341.000
G1 X193.000 Y344.000
G1 X191.000 Y342.000
G1 X191.000 Y340.000
G1 X189.000 Y337.000
G1 X187.000 Y338.000
G1 X184.000 Y340.000
G1 X175.000 Y328.000
G1 X173.000 Y328.000
G1 X170.000 Y332.000
G1 X168.000 Y329.000
G1 X166.000 Y329.000
G1 X166.000 Y327.000
G1 X157.000 Y314.000
G1 X155.000 Y317.000
G1 X154.000 Y313.000
G1 X155.000 Y315.000
G1 X157.000 Y317.000
G1 X155.000 Y319.000
G1 X158.000 Y321.000
G1 X161.000 Y324.000
G1 X163.000 Y324.000
G1 X165.000 Y322.000
G1 X182.000 Y327.000
G1 X184.000 Y326.000
G1 X194.000 Y333.000
G1 X192.000 Y336.000
G1 X198.000 Y336.000
G1 X200.000 Y337.000
G1 X206.000 Y333.000
G1 X209.000 Y336.000
G1 X207.000 Y337.000
G1 X207.000 Y335.000
G1 X205.000 Y336.000
G1 X202.000 Y332.000
G1 X200.000 Y333.000
G1 X199.000 Y335.000
G1 X205.000 Y339.000
G1 X207.000 Y339.000
G0 Z1
G0 X202.000 Y333.000
G1 Z0
G1 X209.000 Y334.000
G1 X211.000 Y337.000
G1 X234.000 Y343.000
G1 X236.000 Y348.000
G1 X224.000 Y342.000
G1 X228.000 Y343.000
G1 X231.000 Y341.000
G1 X241.000 Y342.000
G1 X242.000 Y344.000
G1 X245.000 Y342.000
G1 X215.000 Y337.000
G1 X214.000 Y339.000
G1 X212.000 Y339.000
G1 X209.000 Y337.000
G1 X209.000 Y335.000
G1 X211.000 Y336.000
G1 X214.000 Y335.000
G1 X212.000 Y337.000
G1 X216.000 Y335.000
G1 X220.000 Y348.000
G1 X222.000 Y346.000
G1 X224.000 Y346.000
G1 X225.000 Y348.000
G1 X221.000 Y349.000
G1 X227.000 Y349.000
G1 X227.000 Y347.000
G1 X218.000 Y342.000
G1 X220.000 Y342.000
G1 X219.000 Y340.000
G1 X221.000 Y340.000
G1 X237.000 Y345.000
G1 X242.000 Y348.000
G1 X244.000 Y343.000
G1 X251.000 Y340.000
G1 X250.000 Y348.000
G1 X244.000 Y349.000
G1 X274.000 Y327.000
G1 X278.000 Y325.000
G1 X271.000 Y338.000
G1 X264.000 Y332.000
G1 X262.000 Y332.000
G1 X260.000 Y333.000
G1 X257.000 Y334.000
G1 X255.000 Y333.000
G1 X257.000 Y335.000
G1 X261.000 Y336.000
G1 X263.000 Y333.000
G0 Z1
G0 X271.000 Y339.000
G1 Z0
G1 X273.000 Y339.000
G1 X271.000 Y339.000
G1 X276.000 Y336.000
G1 X278.000 Y332.000
G1 X280.000 Y329.000
G1 X282.000 Y328.000
G1 X286.000 Y330.000
G1 X289.000 Y333.000
G1 X293.000 Y329.000
G1 X295.000 Y328.000
G1 X294.000 Y330.000
G1 X296.000 Y328.000
G1 X303.000 Y320.000
G1 X303.000 Y318.000
G1 X305.000 Y318.000
G1 X306.000 Y311.000
G1 X304.000 Y309.000
G1 X302.000 Y315.000
G1 X298.000 Y317.000
G1 X299.000 Y315.000
G1 X293.000 Y314.000
G1 X296.000 Y320.000
G1 X301.000 Y317.000
G1 X300.000 Y305.000
G1 X296.000 Y309.000
G1 X298.000 Y314.000
G0 Z1
G0 X298.000 Y313.000
G1 Z0
G1 X297.000 Y310.000
G1 X287.000 Y318.000
G1 X288.000 Y316.000
G1 X290.000 Y319.000
G1 X288.000 Y322.000
G1 X286.000 Y322.000
G1 X287.000 Y325.000
G1 X292.000 Y321.000
G1 X298.000 Y319.000
G1 X305.000 Y309.000
G1 X315.000 Y305.000
G1 X314.000 Y299.000
G1 X317.000 Y295.000
G1 X318.000 Y299.000
G1 X316.000 Y301.000
G1 X316.000 Y305.000
G1 X317.000 Y303.000
G1 X312.000 Y282.000
G1 X316.000 Y287.000
G1 X318.000 Y290.000
G1 X322.000 Y294.000
G1 X320.000 Y296.000
G1 X318.000 Y295.000
G1 X315.000 Y292.000
G1 X316.000 Y294.000
G0 Z1
G0 X315.000 Y294.000
G1 Z0
G1 X317.000 Y292.000
G1 X319.000 Y293.000
G1 X323.000 Y290.000
G1 X323.000 Y287.000
G1 X325.000 Y285.000
G1 X325.000 Y283.000
G1 X322.000 Y279.000
G1 X311.000 Y283.000
G1 X320.000 Y276.000
G1 X320.000 Y279.000
G1 X317.000 Y293.000
G1 X311.000 Y287.000
G1 X316.000 Y291.000
G1 X317.000 Y287.000
G1 X322.000 Y290.000
G1 X313.000 Y303.000
G1 X311.000 Y304.000
G1 X308.000 Y297.000
G1 X310.000 Y293.000
G1 X313.000 Y290.000
G1 X318.000 Y300.000
G1 X320.000 Y297.000
G1 X313.000 Y297.000
G1 X315.000 Y302.000
G0 Z1
G0 X315.000 Y300.000
G1 Z0
G1 X317.000 Y303.000
G1 X318.000 Y301.000
G1 X313.000 Y307.000
G1 X310.000 Y308.000
G1 X308.000 Y310.000
G1 X311.000 Y312.000
G1 X312.000 Y310.000
G1 X308.000 Y313.000
G1 X311.000 Y313.000
G1 X308.000 Y315.000
G1 X302.000 Y310.000
G1 X297.000 Y309.000
G1 X287.000 Y323.000
G1 X286.000 Y329.000
G1 X282.000 Y330.000
G1 X286.000 Y335.000
G1 X287.000 Y333.000
G1 X292.000 Y328.000
G1 X295.000 Y324.000
G1 X298.000 Y324.000
G1 X292.000 Y319.000
G1 X289.000 Y321.000
G1 X292.000 Y322.000
G1 X296.000 Y326.000
G1 X299.000 Y322.000
G0 Z1
G0 X302.000 Y323.000
G1 Z0
G1 X300.000 Y325.000
G1 X297.000 Y320.000
G1 X295.000 Y322.000
G1 X303.000 Y317.000
G1 X297.000 Y310.000
G1 X299.000 Y307.000
G1 X302.000 Y309.000
G1 X301.000 Y311.000
G1 X300.000 Y314.000
G1 X301.000 Y321.000
G1 X304.000 Y319.000
G1 X304.000 Y314.000
G1 X322.000 Y293.000
G1 X320.000 Y293.000
G1 X321.000 Y296.000
G1 X320.000 Y298.000
G1 X318.000 Y296.000
G1 X320.000 Y295.000
G1 X316.000 Y295.000
G1 X315.000 Y298.000
G1 X313.000 Y299.000
G1 X314.000 Y296.000
G1 X319.000 Y292.000
G1 X319.000 Y290.000
G1 X321.000 Y289.000
G1 X323.000 Y291.000
G1 X324.000 Y287.000
G1 X324.000 Y289.000
G1 X314.000 Y283.000
G1 X313.000 Y281.000
G1 X314.000 Y277.000
G1 X315.000 Y279.000
G1 X313.000 Y273.000
G1 X318.000 Y276.000
G1 X317.000 Y282.000
G1 X320.000 Y286.000
G1 X320.000 Y288.000
G1 X317.000 Y286.000
G1 X315.000 Y292.000
G1 X313.000 Y292.000
G1 X312.000 Y289.000
G1 X310.000 Y292.000
G1 X312.000 Y294.000
G1 X312.000 Y297.000
G1 X309.000 Y296.000
G1 X309.000 Y298.000
G1 X310.000 Y300.000
G0 Z1
G0 X311.000 Y299.000
G1 Z0
G1 X310.000 Y297.000
G1 X306.000 Y299.000
G1 X310.000 Y300.000
G1 X319.000 Y282.000
G1 X324.000 Y281.000
G1 X323.000 Y277.000
G1 X325.000 Y274.000
G1 X323.000 Y273.000
G1 X322.000 Y269.000
G1 X320.000 Y270.000
G1 X316.000 Y271.000
G1 X327.000 Y278.000
G1 X327.000 Y276.000
G1 X321.000 Y273.000
G1 X324.000 Y289.000
G1 X319.000 Y286.000
G1 X321.000 Y286.000
G1 X320.000 Y284.000
G1 X318.000 Y275.000
G1 X313.000 Y279.000
G1 X311.000 Y282.000
G1 X313.000 Y293.000
G1 X311.000 Y294.000
G1 X312.000 Y291.000
G1 X308.000 Y290.000
G0 Z1
G0 X310.000 Y289.000
G1 Z0
G1 X312.000 Y290.000
G1 X309.000 Y287.000
G1 X313.000 Y285.000
G1 X313.000 Y288.000
G1 X315.000 Y289.000
G1 X315.000 Y285.000
G1 X319.000 Y281.000
G1 X315.000 Y283.000
G1 X312.000 Y281.000
G1 X312.000 Y278.000
G1 X318.000 Y260.000
G1 X320.000 Y265.000
G1 X320.000 Y267.000
G1 X323.000 Y265.000
G1 X319.000 Y261.000
G1 X320.000 Y258.000
G1 X317.000 Y254.000
G1 X317.000 Y257.000
G1 X315.000 Y257.000
G1 X315.000 Y254.000
G1 X316.000 Y256.000
G1 X313.000 Y239.000
G1 X313.000 Y232.000
G0 Z1
G0 X311.000 Y229.000
G1 Z0
G1 X313.000 Y227.000
G1 X309.000 Y226.000
G1 X307.000 Y219.000
G1 X317.000 Y215.000
G1 X315.000 Y225.000
G1 X308.000 Y220.000
G1 X312.000 Y202.000
G1 X314.000 Y205.000
G1 X312.000 Y212.000
G1 X313.000 Y214.000
G1 X314.000 Y218.000
G1 X309.000 Y219.000
G1 X300.000 Y207.000
G1 X304.000 Y203.000
G1 X301.000 Y204.000
G1 X299.000 Y197.000
G1 X302.000 Y193.000
G1 X302.000 Y191.000
G1 X303.000 Y189.000
G1 X303.000 Y187.000
G1 X304.000 Y189.000
G1 X306.000 Y191.000
G1 X307.000 Y195.000
G1 X309.000 Y200.000
G1 X305.000 Y204.000
G1 X308.000 Y205.000
G1 X309.000 Y208.000
G1 X305.000 Y207.000
G1 X307.000 Y210.000
G1 X310.000 Y214.000
G1 X312.000 Y215.000
G0 Z1
G0 X318.000 Y215.000
G1 Z0
G1 X319.000 Y217.000
G1 X321.000 Y219.000
G1 X315.000 Y220.000
G1 X318.000 Y222.000
G1 X316.000 Y227.000
G1 X318.000 Y226.000
G1 X324.000 Y227.000
G1 X325.000 Y232.000
G1 X321.000 Y233.000
G1 X321.000 Y231.000
G1 X326.000 Y237.000
G1 X327.000 Y240.000
G1 X323.000 Y243.000
G1 X320.000 Y242.000
G1 X320.000 Y240.000
G1 X318.000 Y238.000
G1 X315.000 Y241.000
G1 X317.000 Y242.000
G1 X319.000 Y241.000
G1 X319.000 Y250.000
G1 X318.000 Y248.000
G1 X322.000 Y249.000
G1 X324.000 Y254.000
G1 X324.000 Y256.000
G1 X322.000 Y253.000
G1 X322.000 Y251.000
G1 X317.000 Y253.000
G1 X321.000 Y240.000
G1 X325.000 Y243.000
G1 X324.000 Y245.000
G1 X327.000 Y250.000
G1 X325.000 Y251.000
G1 X327.000 Y249.000
G1 X316.000 Y223.000
G1 X310.000 Y217.000
G1 X318.000 Y212.000
G1 X315.000 Y206.000
G1 X315.000 Y212.000
G1 X311.000 Y213.000
G1 X312.000 Y210.000
G1 X313.000 Y205.000
G1 X310.000 Y205.000
G1 X311.000 Y201.000
G1 X313.000 Y201.000
G1 X314.000 Y204.000
G1 X296.000 Y198.000
G1 X298.000 Y202.000
G1 X305.000 Y209.000
G1 X304.000 Y204.000
G1 X305.000 Y206.000
G0 Z1
G0 X301.000 Y207.000
G1 Z0
G1 X301.000 Y209.000
G1 X303.000 Y209.000
G1 X308.000 Y214.000
G1 X311.000 Y210.000
G1 X311.000 Y212.000
G1 X317.000 Y210.000
G1 X312.000 Y207.000
G1 X311.000 Y204.000
G1 X308.000 Y203.000
G1 X307.000 Y205.000
G1 X304.000 Y207.000
G1 X302.000 Y205.000
G1 X301.000 Y203.000
G1 X303.000 Y203.000
G1 X307.000 Y201.000
G1 X309.000 Y210.000
G1 X310.000 Y207.000
G1 X312.000 Y205.000
G1 X311.000 Y207.000
G1 X313.000 Y206.000
G1 X315.000 Y208.000
G1 X314.000 Y225.000
G1 X318.000 Y213.000
G1 X319.000 Y215.000
G1 X317.000 Y219.000
G1 X321.000 Y221.000
G0 Z1
G0 X313.000 Y221.000
G1 Z0
G1 X311.000 Y220.000
G1 X307.000 Y216.000
G1 X303.000 Y213.000
G1 X302.000 Y211.000
G1 X307.000 Y206.000
G1 X305.000 Y205.000
G1 X302.000 Y208.000
G1 X303.000 Y204.000
G1 X299.000 Y205.000
G1 X301.000 Y208.000
G1 X302.000 Y206.000
G1 X314.000 Y220.000
G1 X319.000 Y225.000
G1 X320.000 Y223.000
G1 X315.000 Y229.000
G1 X317.000 Y235.000
G1 X315.000 Y238.000
G1 X316.000 Y234.000
G1 X319.000 Y230.000
G1 X324.000 Y230.000
G1 X324.000 Y234.000
G1 X326.000 Y234.000
G1 X314.000 Y250.000
G1 X314.000 Y248.000
G1 X317.000 Y243.000
G0 Z1
G0 X314.000 Y250.000
G1 Z0
G1 X314.000 Y243.000
G1 X320.000 Y239.000
G1 X319.000 Y237.000
G1 X322.000 Y234.000
G1 X324.000 Y235.000
G1 X326.000 Y234.000
G1 X326.000 Y237.000
G1 X319.000 Y226.000
G1 X321.000 Y230.000
G1 X325.000 Y233.000
G1 X326.000 Y235.000
G1 X323.000 Y243.000
G1 X323.000 Y245.000
G1 X321.000 Y248.000
G1 X320.000 Y253.000
G1 X315.000 Y255.000
G1 X314.000 Y228.000
G1 X317.000 Y230.000
G1 X319.000 Y229.000
G1 X321.000 Y219.000
G1 X322.000 Y222.000
G1 X320.000 Y221.000
G1 X322.000 Y227.000
G1 X324.000 Y231.000
G1 X323.000 Y238.000
G1 X324.000 Y240.000
G1 X321.000 Y239.000
G1 X320.000 Y234.000
G1 X320.000 Y231.000
G1 X315.000 Y226.000
G1 X312.000 Y226.000
G1 X311.000 Y223.000
G1 X309.000 Y222.000
G1 X310.000 Y225.000
G0 Z1
G0 X310.000 Y226.000
G1 Z0
G1 X312.000 Y230.000
G1 X313.000 Y237.000
G1 X313.000 Y233.000
G1 X314.000 Y222.000
G1 X315.000 Y220.000
G1 X315.000 Y218.000
G1 X314.000 Y213.000
G1 X311.000 Y215.000
G1 X313.000 Y212.000
G1 X314.000 Y209.000
G1 X311.000 Y209.000
G1 X308.000 Y204.000
G1 X310.000 Y202.000
G1 X306.000 Y218.000
G1 X309.000 Y217.000
G1 X307.000 Y220.000
G1 X302.000 Y210.000
G1 X303.000 Y208.000
G1 X304.000 Y210.000
G1 X307.000 Y209.000
G1 X306.000 Y211.000
G1 X305.000 Y215.000
G1 X303.000 Y211.000
G1 X299.000 Y200.000
G1 X299.000 Y203.000
G1 X303.000 Y202.000
G1 X304.000 Y200.000
G1 X304.000 Y198.000
G1 X306.000 Y203.000
G1 X306.000 Y197.000
G1 X308.000 Y199.000
G1 X310.000 Y198.000
G1 X309.000 Y194.000
G1 X308.000 Y192.000
G1 X296.000 Y178.000
G1 X294.000 Y179.000
G1 X298.000 Y175.000
G1 X294.000 Y176.000
G1 X291.000 Y170.000
G1 X293.000 Y166.000
G1 X291.000 Y164.000
G1 X290.000 Y166.000
G1 X291.000 Y168.000
G0 Z1
G0 X294.000 Y176.000
G1 Z0
G1 X294.000 Y186.000
G1 X297.000 Y181.000
G1 X295.000 Y190.000
G1 X294.000 Y188.000
G1 X297.000 Y189.000
G1 X294.000 Y192.000
G1 X297.000 Y191.000
G1 X297.000 Y195.000
G1 X295.000 Y197.000
G1 X296.000 Y199.000
G1 X295.000 Y194.000
G1 X287.000 Y184.000
G1 X286.000 Y182.000
G1 X287.000 Y180.000
G1 X291.000 Y180.000
G1 X288.000 Y185.000
G1 X303.000 Y189.000
G1 X307.000 Y193.000
G1 X309.000 Y201.000
G1 X311.000 Y198.000
G1 X306.000 Y199.000
G1 X305.000 Y197.000
G1 X302.000 Y195.000
G1 X302.000 Y197.000
G1 X300.000 Y197.000
G0 Z1
G0 X302.000 Y201.000
G1 Z0
G1 X301.000 Y198.000
G1 X306.000 Y196.000
G1 X301.000 Y196.000
G1 X299.000 Y195.000
G1 X298.000 Y193.000
G1 X298.000 Y190.000
G1 X297.000 Y187.000
G1 X302.000 Y188.000
G1 X289.000 Y167.000
G1 X288.000 Y160.000
G1 X287.000 Y158.000
G1 X285.000 Y161.000
G1 X282.000 Y162.000
G1 X282.000 Y152.000
G1 X283.000 Y146.000
G1 X282.000 Y144.000
G1 X283.000 Y147.000
G1 X281.000 Y144.000
G1 X278.000 Y139.000
G1 X278.000 Y152.000
G1 X276.000 Y156.000
G1 X279.000 Y157.000
G1 X280.000 Y149.000
G1 X278.000 Y145.000
G0 Z1
G0 X276.000 Y150.000
G1 Z0
G1 X277.000 Y152.000
G1 X274.000 Y157.000
G1 X275.000 Y160.000
G1 X285.000 Y158.000
G1 X285.000 Y156.000
G1 X288.000 Y158.000
G1 X289.000 Y160.000
G1 X283.000 Y151.000
G1 X285.000 Y150.000
G1 X284.000 Y159.000
G1 X277.000 Y130.000
G1 X275.000 Y127.000
G1 X278.000 Y127.000
G1 X278.000 Y131.000
G1 X277.000 Y134.000
G1 X279.000 Y138.000
G1 X281.000 Y138.000
G1 X280.000 Y141.000
G1 X282.000 Y141.000
G1 X274.000 Y151.000
G1 X274.000 Y148.000
G1 X272.000 Y149.000
G1 X274.000 Y145.000
G1 X272.000 Y152.000
G1 X269.000 Y148.000
G1 X268.000 Y144.000
G1 X271.000 Y145.000
G1 X273.000 Y143.000
G1 X271.000 Y147.000
G1 X269.000 Y145.000
G1 X270.000 Y147.000
G0 Z1
G0 X271.000 Y145.000
G1 Z0
G1 X271.000 Y143.000
G1 X274.000 Y141.000
G1 X275.000 Y148.000
G1 X272.000 Y154.000
G1 X277.000 Y150.000
G1 X277.000 Y146.000
G1 X276.000 Y143.000
G1 X276.000 Y147.000
G1 X275.000 Y151.000
G1 X273.000 Y157.000
G1 X275.000 Y155.000
G1 X278.000 Y156.000
G1 X278.000 Y154.000
G1 X281.000 Y149.000
G1 X280.000 Y154.000
G1 X281.000 Y165.000
G1 X284.000 Y167.000
G1 X276.000 Y163.000
G1 X277.000 Y165.000
G1 X275.000 Y161.000
G1 X279.000 Y161.000
G1 X288.000 Y164.000
G1 X291.000 Y163.000
G1 X291.000 Y166.000
G1 X292.000 Y168.000
G1 X292.000 Y191.000
G1 X288.000 Y186.000
G1 X287.000 Y184.000
G1 X288.000 Y182.000
G1 X284.000 Y179.000
G1 X283.000 Y177.000
G1 X285.000 Y174.000
G1 X299.000 Y184.000
G1 X296.000 Y180.000
G1 X294.000 Y181.000
G1 X298.000 Y177.000
G1 X301.000 Y181.000
G1 X298.000 Y179.000
G1 X293.000 Y184.000
G1 X299.000 Y186.000
G1 X301.000 Y185.000
G1 X303.000 Y188.000
G1 X304.000 Y185.000
G1 X300.000 Y181.000
G1 X298.000 Y184.000
G1 X300.000 Y186.000
G1 X303.000 Y191.000
G1 X310.000 Y196.000
G1 X312.000 Y200.000
G1 X308.000 Y196.000
G1 X306.000 Y198.000
G1 X308.000 Y200.000
G1 X303.000 Y199.000
G1 X303.000 Y201.000
G1 X305.000 Y203.000
G1 X307.000 Y208.000
G1 X311.000 Y214.000
G1 X310.000 Y216.000
G1 X307.000 Y215.000
G1 X308.000 Y212.000
G1 X304.000 Y211.000
G1 X306.000 Y213.000
G1 X305.000 Y216.000
G1 X319.000 Y232.000
G1 X316.000 Y241.000
G1 X319.000 Y238.000
G1 X318.000 Y246.000
G1 X316.000 Y243.000
G1 X317.000 Y250.000
G1 X316.000 Y252.000
G1 X316.000 Y247.000
G1 X318.000 Y245.000
G1 X324.000 Y249.000
G1 X326.000 Y262.000
G1 X324.000 Y264.000
G1 X323.000 Y266.000
G1 X316.000 Y260.000
G1 X316.000 Y258.000
G1 X324.000 Y257.000
G1 X321.000 Y260.000
G1 X320.000 Y254.000
G1 X323.000 Y256.000
G1 X321.000 Y256.000
G1 X323.000 Y260.000
G1 X324.000 Y258.000
G1 X329.000 Y259.000
G1 X328.000 Y254.000
G1 X329.000 Y256.000
G1 X329.000 Y252.000
G1 X327.000 Y253.000
G1 X327.000 Y258.000
G1 X329.000 Y258.000
G1 X325.000 Y268.000
G1 X327.000 Y271.000
G1 X328.000 Y273.000
G1 X325.000 Y272.000
G1 X322.000 Y268.000
G1 X314.000 Y271.000
G1 X315.000 Y268.000
G1 X319.000 Y269.000
G1 X317.000 Y266.000
G1 X317.000 Y268.000
G1 X326.000 Y280.000
G1 X326.000 Y276.000
G1 X324.000 Y278.000
G1 X325.000 Y281.000
G1 X321.000 Y288.000
G1 X319.000 Y289.000
G1 X318.000 Y292.000
G1 X320.000 Y291.000
G1 X322.000 Y292.000
G1 X313.000 Y278.000
G1 X313.000 Y275.000
G1 X315.000 Y275.000
G1 X317.000 Y279.000
G1 X315.000 Y276.000
G1 X315.000 Y272.000
G1 X319.000 Y275.000
G1 X318.000 Y272.000
G1 X328.000 Y269.000
G1 X327.000 Y267.000
G1 X329.000 Y266.000
G1 X328.000 Y264.000
G1 X326.000 Y267.000
G1 X318.000 Y259.000
G1 X321.000 Y243.000
G1 X324.000 Y247.000
G1 X320.000 Y245.000
G1 X322.000 Y247.000
G1 X322.000 Y242.000
G1 X324.000 Y238.000
G1 X327.000 Y241.000
G1 X326.000 Y239.000
G1 X325.000 Y241.000
G1 X328.000 Y244.000
G1 X327.000 Y246.000
G1 X325.000 Y244.000
G1 X327.000 Y242.000
G1 X312.000 Y225.000
G1 X310.000 Y225.000
G1 X310.000 Y229.000
G1 X314.000 Y229.000
G1 X319.000 Y234.000
G1 X315.000 Y239.000
G1 X315.000 Y231.000
G1 X323.000 Y225.000
G1 X323.000 Y228.000
G1 X325.000 Y230.000
G1 X322.000 Y229.000
G1 X317.000 Y222.000
G1 X320.000 Y220.000
G1 X320.000 Y217.000
G1 X317.000 Y220.000
G1 X320.000 Y225.000
G1 X322.000 Y224.000
G1 X322.000 Y221.000
G1 X321.000 Y223.000
G1 X319.000 Y222.000
G1 X316.000 Y225.000
G1 X311.000 Y221.000
G1 X313.000 Y222.000
G1 X312.000 Y220.000
G1 X315.000 Y219.000
G1 X317.000 Y214.000
G1 X314.000 Y215.000
G1 X311.000 Y218.000
G1 X309.000 Y224.000
G1 X311.000 Y224.000
G1 X312.000 Y237.000
G1 X315.000 Y240.000
G1 X319.000 Y236.000
G1 X321.000 Y238.000
G1 X323.000 Y236.000
G1 X325.000 Y237.000
G0 Z1
G0 X321.000 Y259.000
G1 Z0
G1 X321.000 Y255.000
G1 X324.000 Y254.000
G1 X321.000 Y251.000
G1 X323.000 Y252.000
G1 X327.000 Y244.000
G1 X322.000 Y248.000
G1 X316.000 Y254.000
G1 X319.000 Y259.000
G1 X324.000 Y260.000
G1 X321.000 Y267.000
G1 X324.000 Y266.000
G1 X328.000 Y271.000
G1 X319.000 Y276.000
G1 X314.000 Y268.000
G1 X318.000 Y256.000
G1 X315.000 Y258.000
G1 X315.000 Y263.000
G1 X323.000 Y261.000
G1 X319.000 Y264.000
G1 X322.000 Y284.000
G1 X319.000 Y284.000
G1 X326.000 Y274.000
G1 X327.000 Y277.000
G1 X327.000 Y275.000
G0 Z1
G0 X329.000 Y266.000
G1 Z0
G1 X329.000 Y260.000
G1 X329.000 Y264.000
G1 X326.000 Y265.000
G1 X326.000 Y267.000
G1 X325.000 Y269.000
G1 X324.000 Y262.000
G1 X323.000 Y264.000
G1 X317.000 Y260.000
G1 X318.000 Y265.000
G1 X323.000 Y271.000
G1 X323.000 Y273.000
G1 X321.000 Y272.000
G1 X323.000 Y275.000
G1 X322.000 Y277.000
G1 X321.000 Y283.000
G1 X322.000 Y285.000
G1 X322.000 Y282.000
G1 X319.000 Y271.000
G1 X316.000 Y280.000
G1 X318.000 Y282.000
G1 X316.000 Y272.000
G1 X317.000 Y269.000
G1 X318.000 Y267.000
G1 X320.000 Y261.000
G1 X315.000 Y267.000
G1 X315.000 Y256.000
G1 X329.000 Y251.000
G1 X328.000 Y267.000
G1 X328.000 Y274.000
G1 X325.000 Y275.000
G1 X324.000 Y284.000
G1 X325.000 Y282.000
G1 X324.000 Y286.000
G1 X315.000 Y284.000
G1 X317.000 Y290.000
G1 X316.000 Y292.000
G1 X314.000 Y288.000
G1 X314.000 Y295.000
G1 X318.000 Y302.000
G1 X317.000 Y304.000
G1 X315.000 Y306.000
G1 X319.000 Y298.000
G1 X299.000 Y304.000
G1 X301.000 Y305.000
G1 X300.000 Y303.000
G1 X302.000 Y304.000
G1 X302.000 Y306.000
G1 X295.000 Y310.000
G1 X296.000 Y312.000
G1 X301.000 Y316.000
G1 X308.000 Y289.000
G1 X305.000 Y298.000
G1 X303.000 Y301.000
G1 X307.000 Y299.000
G1 X297.000 Y307.000
G1 X311.000 Y302.000
G1 X310.000 Y294.000
G1 X313.000 Y283.000
G1 X317.000 Y271.000
G1 X314.000 Y267.000
G1 X314.000 Y272.000
G1 X311.000 Y282.000
G1 X310.000 Y284.000
G1 X308.000 Y295.000
G1 X302.000 Y300.000
G1 X306.000 Y316.000
G1 X299.000 Y321.000
G1 X295.000 Y320.000
G1 X276.000 Y327.000
G1 X262.000 Y331.000
G1 X267.000 Y331.000
G1 X264.000 Y333.000
G1 X275.000 Y334.000
G1 X267.000 Y329.000
G1 X278.000 Y331.000
G1 X274.000 Y338.000
G1 X263.000 Y338.000
G1 X239.000 Y337.000
G1 X236.000 Y336.000
G1 X229.000 Y340.000
G1 X219.000 Y336.000
G1 X212.000 Y342.000
G1 X191.000 Y339.000
G1 X183.000 Y334.000
G1 X181.000 Y335.000
G1 X187.000 Y335.000
G1 X189.000 Y334.000
G1 X175.000 Y330.000
G1 X180.000 Y323.000
G1 X186.000 Y325.000
G1 X177.000 Y334.000
G1 X174.000 Y333.000
G1 X169.000 Y328.000
G1 X196.000 Y334.000
G1 X190.000 Y336.000
G1 X188.000 Y341.000
G1 X171.000 Y332.000
G1 X170.000 Y330.000
G0 Z1
G0 X170.000 Y322.000
G1 Z0
G1 X172.000 Y320.000
G1 X170.000 Y321.000
G1 X172.000 Y316.000
G1 X176.000 Y320.000
G1 X190.000 Y333.000
G1 X183.000 Y335.000
G1 X173.000 Y327.000
G1 X176.000 Y325.000
G1 X179.000 Y331.000
G1 X184.000 Y324.000
G1 X188.000 Y327.000
G1 X198.000 Y331.000
G1 X202.000 Y332.000
G1 X214.000 Y343.000
G1 X212.000 Y346.000
G1 X200.000 Y335.000
G1 X198.000 Y337.000
G1 X202.000 Y339.000
G1 X201.000 Y344.000
G1 X203.000 Y340.000
G1 X207.000 Y343.000
G1 X209.000 Y348.000
G1 X211.000 Y346.000
G1 X215.000 Y349.000
G1 X217.000 Y345.000
G0 Z1
G0 X216.000 Y346.000
G1 Z0
G1 X216.000 Y344.000
G1 X219.000 Y344.000
G1 X217.000 Y347.000
G1 X212.000 Y345.000
G1 X212.000 Y347.000
G1 X216.000 Y349.000
G1 X228.000 Y340.000
G1 X227.000 Y337.000
G1 X232.000 Y337.000
G1 X229.000 Y338.000
G1 X220.000 Y336.000
G1 X215.000 Y339.000
G1 X216.000 Y341.000
G1 X211.000 Y343.000
G1 X210.000 Y337.000
G1 X208.000 Y339.000
G1 X206.000 Y337.000
G1 X197.000 Y343.000
G1 X193.000 Y338.000
G1 X196.000 Y336.000
G1 X201.000 Y337.000
G1 X204.000 Y340.000
G1 X199.000 Y338.000
G1 X197.000 Y337.000
G0 Z1
G0 X191.000 Y336.000
G1 Z0
G1 X186.000 Y334.000
G1 X184.000 Y334.000
G1 X181.000 Y338.000
G1 X178.000 Y335.000
G1 X176.000 Y336.000
G1 X179.000 Y325.000
G1 X182.000 Y326.000
G1 X181.000 Y324.000
G1 X178.000 Y323.000
G1 X183.000 Y329.000
G1 X167.000 Y324.000
G1 X158.000 Y319.000
G1 X157.000 Y315.000
G1 X153.000 Y316.000
G1 X154.000 Y314.000
G1 X150.000 Y312.000
G1 X155.000 Y318.000
G1 X157.000 Y321.000
G1 X166.000 Y315.000
G1 X169.000 Y314.000
G1 X169.000 Y316.000
G1 X172.000 Y315.000
G1 X173.000 Y318.000
G1 X171.000 Y323.000
G1 X170.000 Y321.000
G1 X168.000 Y322.000
G1 X166.000 Y321.000
G1 X163.000 Y320.000
G1 X162.000 Y322.000
G1 X160.000 Y321.000
G1 X165.000 Y328.000
G1 X168.000 Y325.000
G1 X168.000 Y328.000
G1 X159.000 Y315.000
G1 X157.000 Y319.000
G1 X156.000 Y317.000
G1 X160.000 Y315.000
G1 X164.000 Y318.000
G1 X167.000 Y318.000
G1 X171.000 Y316.000
G1 X165.000 Y325.000
G1 X163.000 Y326.000
G1 X170.000 Y331.000
G1 X171.000 Y328.000
G1 X169.000 Y327.000
G1 X173.000 Y334.000
G1 X176.000 Y334.000
G1 X176.000 Y331.000
G1 X177.000 Y329.000
G1 X170.000 Y324.000
G1 X176.000 Y321.000
G1 X172.000 Y322.000
G1 X174.000 Y320.000
G1 X175.000 Y318.000
G0 Z1
G0 X178.000 Y320.000
G1 Z0
G1 X176.000 Y322.000
G1 X173.000 Y321.000
G1 X170.000 Y313.000
G1 X180.000 Y323.000
G1 X183.000 Y331.000
G1 X187.000 Y333.000
G1 X192.000 Y335.000
G1 X192.000 Y343.000
G1 X196.000 Y339.000
G1 X196.000 Y343.000
G1 X198.000 Y340.000
G1 X195.000 Y336.000
G1 X195.000 Y332.000
G1 X185.000 Y338.000
G1 X188.000 Y341.000
G1 X185.000 Y340.000
G1 X183.000 Y337.000
G1 X176.000 Y332.000
G1 X174.000 Y333.000
G1 X177.000 Y336.000
G1 X181.000 Y329.000
G1 X185.000 Y330.000
G1 X188.000 Y328.000
G1 X190.000 Y327.000
G1 X193.000 Y329.000
G1 X192.000 Y331.000
G1 X190.000 Y333.000
G0 Z1
G0 X187.000 Y333.000
G1 Z0
G1 X187.000 Y331.000
G1 X184.000 Y332.000
G1 X180.000 Y338.000
G1 X178.000 Y336.000
G1 X186.000 Y336.000
G1 X184.000 Y337.000
G1 X188.000 Y340.000
G1 X191.000 Y338.000
G1 X192.000 Y340.000
G1 X195.000 Y342.000
G1 X194.000 Y340.000
G1 X197.000 Y337.000
G1 X207.000 Y345.000
G1 X210.000 Y343.000
G1 X210.000 Y341.000
G1 X202.000 Y336.000
G1 X204.000 Y336.000
G1 X199.000 Y340.000
G1 X192.000 Y334.000
G1 X196.000 Y333.000
G1 X199.000 Y331.000
G1 X198.000 Y334.000
G1 X204.000 Y334.000
G1 X201.000 Y333.000
G1 X199.000 Y331.000
G0 Z1
G0 X182.000 Y328.000
G1 Z0
G1 X184.000 Y327.000
G1 X186.000 Y327.000
G1 X188.000 Y326.000
G1 X186.000 Y328.000
G1 X181.000 Y331.000
G1 X179.000 Y329.000
G1 X181.000 Y330.000
G1 X180.000 Y327.000
G1 X177.000 Y326.000
G1 X177.000 Y324.000
G1 X172.000 Y324.000
G1 X171.000 Y326.000
G1 X173.000 Y329.000
G1 X175.000 Y329.000
G1 X173.000 Y332.000
G1 X182.000 Y334.000
G1 X180.000 Y332.000
G1 X190.000 Y329.000
G1 X187.000 Y327.000
G1 X186.000 Y329.000
G1 X192.000 Y333.000
G1 X189.000 Y336.000
G1 X188.000 Y338.000
G1 X189.000 Y341.000
G1 X193.000 Y337.000
G1 X199.000 Y344.000
G1 X207.000 Y344.000
G1 X212.000 Y348.000
G1 X210.000 Y348.000
G1 X208.000 Y347.000
G1 X206.000 Y347.000
G1 X215.000 Y342.000
G1 X213.000 Y346.000
G1 X216.000 Y348.000
G1 X214.000 Y349.000
G1 X219.000 Y348.000
G1 X217.000 Y346.000
G1 X221.000 Y343.000
G1 X223.000 Y343.000
G1 X222.000 Y341.000
G1 X229.000 Y350.000
G1 X233.000 Y349.000
G1 X235.000 Y350.000
G1 X237.000 Y350.000
G1 X238.000 Y347.000
G1 X227.000 Y350.000
G1 X225.000 Y350.000
G1 X217.000 Y349.000
G1 X230.000 Y346.000
G1 X236.000 Y340.000
G1 X239.000 Y340.000
G1 X240.000 Y343.000
G1 X238.000 Y344.000
G1 X236.000 Y344.000
G1 X234.000 Y346.000
G1 X232.000 Y346.000
G1 X230.000 Y347.000
G0 Z1
G0 X230.000 Y348.000
G1 Z0
G1 X232.000 Y348.000
G1 X237.000 Y346.000
G1 X227.000 Y344.000
G1 X226.000 Y341.000
G1 X222.000 Y339.000
G1 X247.000 Y346.000
G1 X250.000 Y343.000
G1 X246.000 Y341.000
G1 X247.000 Y339.000
G1 X245.000 Y339.000
G1 X234.000 Y337.000
G1 X234.000 Y339.000
G1 X239.000 Y336.000
G1 X242.000 Y336.000
G1 X253.000 Y335.000
G1 X256.000 Y342.000
G1 X265.000 Y339.000
G1 X260.000 Y345.000
G1 X261.000 Y341.000
G1 X259.000 Y339.000
G1 X256.000 Y335.000
G1 X256.000 Y339.000
G1 X258.000 Y337.000
G1 X262.000 Y338.000
G1 X267.000 Y344.000
G1 X267.000 Y340.000
G1 X272.000 Y331.000
G1 X269.000 Y328.000
G1 X271.000 Y327.000
G1 X275.000 Y328.000
G1 X272.000 Y333.000
G1 X269.000 Y333.000
G1 X265.000 Y330.000
G1 X268.000 Y330.000
G1 X270.000 Y331.000
G1 X275.000 Y333.000
G1 X279.000 Y335.000
G1 X281.000 Y332.000
G1 X283.000 Y333.000
G1 X279.000 Y327.000
G1 X284.000 Y328.000
G1 X286.000 Y318.000
G1 X290.000 Y318.000
G1 X291.000 Y313.000
G1 X294.000 Y310.000
G1 X297.000 Y313.000
G1 X291.000 Y321.000
G1 X294.000 Y322.000
G1 X292.000 Y317.000
G1 X294.000 Y318.000
G1 X294.000 Y320.000
G1 X296.000 Y318.000
G1 X296.000 Y315.000
G1 X305.000 Y310.000
G1 X305.000 Y307.000
G1 X302.000 Y311.000
G1 X304.000 Y313.000
G1 X306.000 Y317.000
G1 X304.000 Y321.000
G1 X301.000 Y322.000
G1 X299.000 Y319.000
G1 X302.000 Y319.000
G1 X302.000 Y321.000
G1 X287.000 Y329.000
G1 X289.000 Y332.000
G1 X294.000 Y327.000
G1 X291.000 Y323.000
G1 X289.000 Y326.000
G1 X291.000 Y326.000
G1 X293.000 Y327.000
G1 X290.000 Y329.000
G1 X283.000 Y321.000
G1 X285.000 Y319.000
G1 X288.000 Y323.000
G1 X288.000 Y325.000
G1 X287.000 Y327.000
G1 X281.000 Y324.000
G1 X278.000 Y324.000
G1 X273.000 Y326.000
G1 X272.000 Y329.000
G1 X277.000 Y332.000
G1 X278.000 Y334.000
G1 X273.000 Y341.000
G1 X268.000 Y343.000
G1 X270.000 Y341.000
G1 X263.000 Y336.000
G1 X267.000 Y334.000
G1 X266.000 Y336.000
G1 X270.000 Y339.000
G1 X273.000 Y333.000
G1 X275.000 Y336.000
G1 X277.000 Y340.000
G1 X275.000 Y339.000
G1 X273.000 Y337.000
G1 X270.000 Y336.000
G1 X264.000 Y331.000
G1 X267.000 Y332.000
G1 X269.000 Y330.000
G1 X279.000 Y329.000
G1 X273.000 Y331.000
G1 X283.000 Y336.000
G1 X286.000 Y334.000
G1 X285.000 Y336.000
G1 X280.000 Y337.000
G1 X278.000 Y338.000
G1 X278.000 Y336.000
G1 X281.000 Y329.000
G1 X279.000 Y332.000
G1 X278.000 Y330.000
G0 Z1
G0 X280.000 Y322.000
G1 Z0
G1 X282.000 Y323.000
G1 X285.000 Y331.000
G1 X289.000 Y329.000
G1 X290.000 Y332.000
G1 X287.000 Y334.000
G1 X267.000 Y341.000
G1 X255.000 Y347.000
G1 X255.000 Y344.000
G1 X262.000 Y341.000
G1 X260.000 Y335.000
G1 X263.000 Y338.000
G1 X264.000 Y336.000
G1 X263.000 Y331.000
G1 X260.000 Y333.000
G1 X272.000 Y332.000
G1 X271.000 Y334.000
G1 X275.000 Y337.000
G1 X272.000 Y338.000
G1 X268.000 Y337.000
G1 X270.000 Y338.000
G1 X264.000 Y345.000
G1 X261.000 Y345.000
G1 X260.000 Y343.000
G1 X257.000 Y345.000
G1 X239.000 Y348.000
G0 Z1
G0 X241.000 Y348.000
G1 Z0
G1 X239.000 Y345.000
G1 X246.000 Y344.000
G1 X251.000 Y338.000
G1 X252.000 Y336.000
G1 X249.000 Y338.000
G1 X248.000 Y336.000
G1 X246.000 Y335.000
G1 X244.000 Y338.000
G1 X240.000 Y340.000
G1 X257.000 Y341.000
G1 X259.000 Y343.000
G1 X256.000 Y344.000
G1 X254.000 Y340.000
G1 X253.000 Y343.000
G1 X249.000 Y340.000
G1 X251.000 Y334.000
G1 X263.000 Y334.000
G1 X261.000 Y332.000
G1 X256.000 Y333.000
G1 X255.000 Y335.000
G1 X255.000 Y338.000
G1 X245.000 Y347.000
G1 X247.000 Y348.000
G1 X245.000 Y346.000
G1 X247.000 Y348.000
G0 Z1
G0 X243.000 Y349.000
G1 Z0
G1 X242.000 Y346.000
G1 X244.000 Y342.000
G1 X243.000 Y340.000
G1 X245.000 Y341.000
G1 X248.000 Y343.000
G1 X253.000 Y345.000
G1 X264.000 Y330.000
G1 X265.000 Y332.000
G1 X267.000 Y329.000
G1 X273.000 Y327.000
G1 X277.000 Y328.000
G1 X275.000 Y326.000
G1 X283.000 Y329.000
G1 X284.000 Y324.000
G1 X284.000 Y322.000
G1 X283.000 Y320.000
G1 X287.000 Y319.000
G1 X291.000 Y325.000
G1 X297.000 Y322.000
G1 X298.000 Y320.000
G1 X289.000 Y317.000
G1 X292.000 Y313.000
G1 X294.000 Y312.000
G1 X292.000 Y313.000
G0 Z1
G0 X302.000 Y307.000
G1 Z0
G1 X304.000 Y306.000
G1 X308.000 Y305.000
G1 X308.000 Y308.000
G1 X310.000 Y310.000
G1 X314.000 Y308.000
G1 X309.000 Y307.000
G1 X314.000 Y304.000
G1 X308.000 Y291.000
G1 X304.000 Y297.000
G1 X303.000 Y299.000
G1 X307.000 Y298.000
G1 X311.000 Y301.000
G1 X310.000 Y298.000
G1 X308.000 Y296.000
G1 X308.000 Y293.000
G1 X309.000 Y291.000
G1 X315.000 Y295.000
G1 X311.000 Y296.000
G1 X313.000 Y295.000
G1 X315.000 Y296.000
G1 X314.000 Y298.000
G1 X312.000 Y301.000
G1 X309.000 Y303.000
G1 X310.000 Y305.000
G1 X302.000 Y302.000
G0 Z1
G0 X301.000 Y302.000
G1 Z0
G1 X303.000 Y300.000
G1 X306.000 Y299.000
G1 X307.000 Y297.000
G1 X307.000 Y295.000
G1 X306.000 Y293.000
G1 X308.000 Y292.000
G1 X310.000 Y287.000
G1 X311.000 Y284.000
G1 X313.000 Y284.000
G1 X315.000 Y288.000
G1 X316.000 Y285.000
G1 X314.000 Y287.000
G1 X309.000 Y288.000
G1 X315.000 Y307.000
G1 X310.000 Y311.000
G1 X313.000 Y306.000
G1 X312.000 Y304.000
G1 X308.000 Y306.000
G1 X310.000 Y304.000
G1 X306.000 Y310.000
G1 X306.000 Y307.000
G1 X305.000 Y305.000
G1 X305.000 Y303.000
G1 X307.000 Y304.000
G1 X308.000 Y302.000
G1 X308.000 Y300.000
G1 X306.000 Y301.000
G1 X307.000 Y303.000
G0 Z1
G0 X304.000 Y304.000
G1 Z0
G1 X304.000 Y302.000
G1 X306.000 Y302.000
G1 X312.000 Y303.000
G1 X314.000 Y307.000
G1 X312.000 Y306.000
G1 X310.000 Y309.000
G1 X308.000 Y310.000
G1 X307.000 Y312.000
G1 X309.000 Y312.000
G1 X300.000 Y303.000
G1 X308.000 Y300.000
G1 X310.000 Y303.000
G1 X313.000 Y310.000
G1 X311.000 Y312.000
G1 X305.000 Y320.000
G1 X303.000 Y314.000
G1 X305.000 Y316.000
G1 X309.000 Y313.000
G1 X291.000 Y332.000
G1 X302.000 Y316.000
G1 X293.000 Y316.000
G1 X301.000 Y308.000
G1 X305.000 Y295.000
G1 X307.000 Y294.000
G1 X305.000 Y300.000
G0 Z1
G0 X301.000 Y302.000
G1 Z0
G1 X303.000 Y304.000
G1 X307.000 Y306.000
G1 X306.000 Y308.000
G1 X305.000 Y311.000
G1 X301.000 Y306.000
G1 X302.000 Y308.000
G1 X299.000 Y305.000
G1 X299.000 Y311.000
G1 X297.000 Y308.000
G1 X298.000 Y306.000
G1 X296.000 Y308.000
G1 X291.000 Y316.000
G1 X289.000 Y315.000
G1 X289.000 Y319.000
G1 X287.000 Y320.000
G1 X283.000 Y324.000
G1 X281.000 Y322.000
G1 X279.000 Y323.000
G1 X284.000 Y333.000
G1 X280.000 Y330.000
G1 X251.000 Y345.000
G1 X262.000 Y346.000
G1 X263.000 Y342.000
G1 X265.000 Y340.000
G1 X256.000 Y346.000
G1 X251.000 Y347.000
G1 X253.000 Y346.000
G1 X252.000 Y348.000
G0 Z1
G0 X254.000 Y347.000
G1 Z0
G1 X253.000 Y337.000
G1 X251.000 Y335.000
G1 X255.000 Y334.000
G1 X261.000 Y339.000
G1 X269.000 Y339.000
G1 X272.000 Y340.000
G1 X284.000 Y334.000
G1 X286.000 Y332.000
G1 X285.000 Y334.000
G1 X281.000 Y335.000
G1 X279.000 Y339.000
G1 X284.000 Y336.000
G1 X281.000 Y333.000
G1 X282.000 Y331.000
G1 X276.000 Y329.000
G1 X273.000 Y329.000
G1 X270.000 Y328.000
G1 X275.000 Y332.000
G1 X281.000 Y322.000
G1 X279.000 Y323.000
G1 X283.000 Y322.000
G1 X282.000 Y325.000
G1 X282.000 Y327.000
G1 X284.000 Y327.000
G1 X282.000 Y329.000
G1 X284.000 Y331.000
G1 X282.000 Y333.000
G1 X286.000 Y331.000
G1 X286.000 Y333.000
G1 X288.000 Y334.000
G1 X289.000 Y329.000
G1 X292.000 Y323.000
G1 X289.000 Y323.000
G1 X286.000 Y321.000
G1 X296.000 Y323.000
G1 X293.000 Y322.000
G1 X293.000 Y326.000
G1 X297.000 Y327.000
G1 X291.000 Y332.000
G1 X287.000 Y328.000
G1 X287.000 Y330.000
G1 X285.000 Y327.000
G1 X279.000 Y333.000
G1 X279.000 Y336.000
G1 X276.000 Y337.000
G1 X275.000 Y335.000
G1 X270.000 Y335.000
G1 X266.000 Y337.000
G1 X263.000 Y335.000
G1 X265.000 Y336.000
G1 X269.000 Y331.000
G1 X265.000 Y343.000
G1 X265.000 Y345.000
G1 X253.000 Y348.000
G1 X251.000 Y346.000
G1 X249.000 Y346.000
G1 X248.000 Y349.000
G1 X243.000 Y349.000
G1 X246.000 Y343.000
G1 X254.000 Y343.000
G1 X260.000 Y342.000
G1 X264.000 Y342.000
G1 X266.000 Y341.000
G1 X269.000 Y341.000
G1 X273.000 Y342.000
G1 X261.000 Y335.000
G1 X258.000 Y336.000
G1 X259.000 Y332.000
G1 X260.000 Y334.000
G1 X257.000 Y333.000
G1 X248.000 Y340.000
G1 X245.000 Y340.000
G1 X243.000 Y339.000
G1 X236.000 Y339.000
G1 X234.000 Y340.000
G1 X231.000 Y338.000
G1 X233.000 Y337.000
G1 X228.000 Y337.000
G1 X224.000 Y339.000
G1 X221.000 Y336.000
G1 X225.000 Y336.000
G1 X220.000 Y337.000
G1 X218.000 Y336.000
G1 X215.000 Y335.000
G1 X210.000 Y336.000
G1 X223.000 Y348.000
G1 X218.000 Y347.000
G1 X215.000 Y347.000
G1 X213.000 Y349.000
G1 X219.000 Y349.000
G1 X221.000 Y350.000
G1 X228.000 Y350.000
G1 X229.000 Y347.000
G1 X240.000 Y350.000
G1 X225.000 Y344.000
G1 X220.000 Y344.000
G1 X223.000 Y346.000
G1 X229.000 Y346.000
G1 X226.000 Y348.000
G1 X208.000 Y344.000
G1 X206.000 Y345.000
G1 X200.000 Y345.000
G1 X203.000 Y347.000
G1 X205.000 Y347.000
G1 X223.000 Y340.000
G1 X220.000 Y339.000
G1 X223.000 Y337.000
G1 X230.000 Y338.000
G1 X227.000 Y340.000
G1 X221.000 Y342.000
G1 X218.000 Y341.000
G1 X215.000 Y341.000
G1 X218.000 Y339.000
G1 X226.000 Y343.000
G1 X229.000 Y343.000
G1 X231.000 Y344.000
G1 X238.000 Y345.000
G1 X241.000 Y345.000
G1 X243.000 Y342.000
G1 X245.000 Y343.000
G1 X237.000 Y341.000
G1 X235.000 Y339.000
G1 X230.000 Y341.000
G1 X236.000 Y341.000
G1 X245.000 Y335.000
G1 X247.000 Y335.000
G1 X254.000 Y334.000
G1 X254.000 Y336.000
G1 X263.000 Y334.000
G1 X268.000 Y337.000
G1 X274.000 Y336.000
G1 X269.000 Y334.000
G1 X271.000 Y331.000
G1 X276.000 Y333.000
G1 X280.000 Y325.000
G1 X277.000 Y325.000
G1 X279.000 Y328.000
G1 X272.000 Y327.000
G1 X277.000 Y324.000
G1 X283.000 Y323.000
G1 X286.000 Y324.000
G1 X283.000 Y320.000
G1 X287.000 Y317.000
G1 X287.000 Y319.000
G1 X284.000 Y319.000
G1 X289.000 Y327.000
G1 X292.000 Y326.000
G1 X290.000 Y328.000
G1 X299.000 Y325.000
G1 X287.000 Y332.000
G1 X293.000 Y311.000
G1 X295.000 Y313.000
G1 X294.000 Y311.000
G1 X290.000 Y314.000
G1 X293.000 Y316.000
G1 X295.000 Y315.000
G1 X297.000 Y315.000
G1 X298.000 Y312.000
G1 X307.000 Y314.000
G1 X310.000 Y313.000
G1 X309.000 Y311.000
G1 X307.000 Y316.000
G1 X306.000 Y319.000
G1 X302.000 Y323.000
G1 X296.000 Y325.000
G1 X281.000 Y326.000
G1 X280.000 Y335.000
G1 X285.000 Y328.000
G1 X285.000 Y332.000
G1 X275.000 Y341.000
G1 X268.000 Y342.000
G1 X259.000 Y340.000
G1 X250.000 Y340.000
G1 X248.000 Y339.000
G1 X240.000 Y340.000
G1 X236.000 Y338.000
G1 X260.000 Y339.000
G1 X256.000 Y345.000
G1 X246.000 Y345.000
G1 X243.000 Y347.000
G1 X231.000 Y347.000
G1 X237.000 Y343.000
G1 X248.000 Y344.000
G1 X264.000 Y344.000
G1 X244.000 Y348.000
G1 X236.000 Y350.000
G1 X217.000 Y345.000
G1 X211.000 Y346.000
G1 X203.000 Y343.000
G1 X193.000 Y343.000
G1 X196.000 Y345.000
G1 X232.000 Y350.000
G1 X230.000 Y350.000
G0 Z1
G0 X230.000 Y349.000
G1 Z0
G1 X228.000 Y348.000
G1 X230.000 Y349.000
G1 X234.000 Y350.000
G1 X237.000 Y348.000
G1 X242.000 Y349.000
G1 X241.000 Y347.000
G1 X238.000 Y350.000
G1 X243.000 Y337.000
G1 X252.000 Y339.000
G1 X251.000 Y336.000
G1 X246.000 Y337.000
G1 X243.000 Y341.000
G1 X235.000 Y342.000
G1 X235.000 Y340.000
G1 X214.000 Y337.000
G1 X216.000 Y338.000
G1 X218.000 Y340.000
G1 X213.000 Y348.000
G1 X208.000 Y348.000
G1 X209.000 Y346.000
G1 X211.000 Y347.000
G1 X205.000 Y337.000
G1 X206.000 Y334.000
G1 X210.000 Y334.000
G1 X212.000 Y335.000
G1 X215.000 Y336.000
G1 X217.000 Y336.000
G0 Z1
G0 X238.000 Y336.000
G1 Z0
G1 X236.000 Y336.000
G1 X238.000 Y339.000
G1 X240.000 Y339.000
G1 X241.000 Y336.000
G1 X229.000 Y344.000
G1 X233.000 Y345.000
G1 X231.000 Y348.000
G1 X228.000 Y347.000
G1 X226.000 Y345.000
G1 X228.000 Y346.000
G1 X224.000 Y348.000
G1 X216.000 Y343.000
G1 X217.000 Y340.000
G1 X209.000 Y342.000
G1 X205.000 Y341.000
G1 X203.000 Y345.000
G1 X204.000 Y347.000
G1 X201.000 Y346.000
G1 X199.000 Y345.000
G1 X191.000 Y343.000
G1 X188.000 Y336.000
G1 X185.000 Y334.000
G1 X182.000 Y333.000
G1 X180.000 Y333.000
G0 Z1
G0 X159.000 Y300.000
G1 Z0
G1 X155.000 Y303.000
G1 X155.000 Y301.000
G1 X151.000 Y302.000
G1 X152.000 Y304.000
G1 X157.000 Y305.000
G1 X156.000 Y303.000
G1 X155.000 Y307.000
G1 X157.000 Y308.000
G1 X160.000 Y312.000
G1 X163.000 Y310.000
G1 X161.000 Y310.000
G1 X162.000 Y313.000
G1 X168.000 Y312.000
G1 X167.000 Y310.000
G1 X165.000 Y308.000
G1 X162.000 Y315.000
G1 X148.000 Y307.000
G1 X146.000 Y307.000
G1 X146.000 Y305.000
G1 X145.000 Y302.000
G1 X148.000 Y299.000
G1 X148.000 Y295.000
G1 X150.000 Y294.000
G1 X149.000 Y291.000
G1 X154.000 Y293.000
G1 X151.000 Y295.000
G1 X153.000 Y290.000
G1 X138.000 Y291.000
G1 X139.000 Y289.000
G1 X141.000 Y288.000
G1 X139.000 Y285.000
G1 X142.000 Y286.000
G1 X144.000 Y288.000
G1 X143.000 Y290.000
G1 X139.000 Y290.000
G1 X146.000 Y286.000
G1 X144.000 Y272.000
G1 X143.000 Y274.000
G1 X141.000 Y274.000
G1 X145.000 Y268.000
G1 X145.000 Y266.000
G1 X142.000 Y260.000
G1 X144.000 Y261.000
G1 X146.000 Y264.000
G1 X140.000 Y271.000
G1 X142.000 Y268.000
G1 X135.000 Y267.000
G1 X135.000 Y271.000
G1 X137.000 Y272.000
G1 X137.000 Y270.000
G1 X136.000 Y268.000
G1 X136.000 Y276.000
G1 X134.000 Y277.000
G1 X133.000 Y269.000
G1 X132.000 Y265.000
G1 X132.000 Y258.000
G1 X136.000 Y250.000
G1 X133.000 Y243.000
G1 X134.000 Y237.000
G1 X138.000 Y237.000
G1 X136.000 Y241.000
G1 X148.000 Y232.000
G1 X149.000 Y228.000
G1 X148.000 Y225.000
G1 X150.000 Y226.000
G1 X147.000 Y222.000
G1 X147.000 Y217.000
G1 X149.000 Y215.000
G1 X147.000 Y216.000
G1 X153.000 Y222.000
G1 X152.000 Y227.000
G1 X149.000 Y230.000
G1 X147.000 Y228.000
G1 X146.000 Y233.000
G1 X143.000 Y231.000
G1 X149.000 Y223.000
G1 X141.000 Y221.000
G1 X140.000 Y229.000
G1 X142.000 Y229.000
G1 X147.000 Y235.000
G1 X144.000 Y237.000
G1 X147.000 Y239.000
G1 X145.000 Y238.000
G1 X145.000 Y245.000
G1 X147.000 Y247.000
G1 X146.000 Y244.000
G1 X144.000 Y244.000
G1 X141.000 Y246.000
G1 X138.000 Y246.000
G1 X138.000 Y251.000
G1 X140.000 Y260.000
G1 X139.000 Y263.000
G1 X142.000 Y265.000
G1 X139.000 Y266.000
G1 X138.000 Y269.000
G1 X134.000 Y264.000
G1 X137.000 Y261.000
G1 X141.000 Y251.000
G1 X143.000 Y252.000
G1 X140.000 Y252.000
G1 X143.000 Y246.000
G1 X136.000 Y244.000
G1 X134.000 Y244.000
G1 X135.000 Y242.000
G1 X142.000 Y239.000
G1 X141.000 Y237.000
G1 X146.000 Y235.000
G1 X150.000 Y232.000
G1 X153.000 Y216.000
G1 X156.000 Y217.000
G1 X156.000 Y213.000
G1 X158.000 Y212.000
G1 X155.000 Y202.000
G1 X153.000 Y203.000
G1 X153.000 Y206.000
G1 X162.000 Y193.000
G1 X165.000 Y198.000
G1 X164.000 Y194.000
G1 X163.000 Y197.000
G1 X164.000 Y202.000
G1 X166.000 Y191.000
G1 X166.000 Y194.000
G1 X163.000 Y190.000
G1 X165.000 Y187.000
G1 X166.000 Y189.000
G1 X158.000 Y194.000
G1 X160.000 Y195.000
G1 X162.000 Y189.000
G1 X173.000 Y177.000
G1 X171.000 Y177.000
G1 X169.000 Y166.000
G1 X177.000 Y175.000
G1 X177.000 Y167.000
G1 X179.000 Y162.000
G1 X178.000 Y160.000
G1 X177.000 Y155.000
G1 X179.000 Y153.000
G1 X177.000 Y150.000
G1 X180.000 Y149.000
G1 X178.000 Y145.000
G1 X182.000 Y146.000
G1 X190.000 Y152.000
G1 X192.000 Y147.000
G1 X195.000 Y137.000
G1 X197.000 Y131.000
G1 X197.000 Y128.000
G1 X194.000 Y133.000
G1 X196.000 Y136.000
G1 X193.000 Y135.000
G1 X193.000 Y141.000
G1 X190.000 Y144.000
G1 X191.000 Y146.000
G1 X189.000 Y146.000
G1 X186.000 Y152.000
G1 X187.000 Y154.000
G1 X185.000 Y157.000
G1 X185.000 Y154.000
G1 X187.000 Y155.000
G1 X189.000 Y155.000
G1 X188.000 Y151.000
G1 X192.000 Y148.000
G1 X189.000 Y149.000
G1 X185.000 Y147.000
G1 X186.000 Y142.000
G1 X189.000 Y144.000
G1 X188.000 Y147.000
G1 X181.000 Y138.000
G1 X181.000 Y136.000
G1 X185.000 Y137.000
G1 X187.000 Y134.000
G1 X182.000 Y135.000
G1 X183.000 Y128.000
G1 X183.000 Y130.000
G1 X188.000 Y132.000
G1 X188.000 Y129.000
G1 X190.000 Y130.000
G1 X188.000 Y124.000
G1 X186.000 Y123.000
G1 X187.000 Y125.000
G1 X184.000 Y126.000
G1 X184.000 Y124.000
G1 X185.000 Y120.000
G1 X185.000 Y118.000
G1 X187.000 Y117.000
G1 X190.000 Y118.000
G1 X189.000 Y120.000
G1 X192.000 Y123.000
G1 X189.000 Y122.000
G1 X196.000 Y120.000
G1 X198.000 Y123.000
G1 X198.000 Y126.000
G1 X192.000 Y118.000
G1 X198.000 Y120.000
G1 X222.000 Y113.000
G1 X220.000 Y111.000
G1 X218.000 Y110.000
G1 X220.000 Y106.000
G1 X223.000 Y106.000
G1 X232.000 Y107.000
G1 X230.000 Y108.000
G1 X227.000 Y108.000
G1 X224.000 Y114.000
G1 X216.000 Y106.000
G1 X214.000 Y106.000
G1 X209.000 Y105.000
G1 X201.000 Y106.000
G1 X198.000 Y106.000
G1 X203.000 Y109.000
G1 X206.000 Y109.000
G1 X209.000 Y110.000
G1 X203.000 Y111.000
G1 X199.000 Y112.000
G1 X196.000 Y110.000
G1 X216.000 Y111.000
G1 X208.000 Y107.000
G1 X216.000 Y108.000
G1 X220.000 Y116.000
G1 X224.000 Y116.000
G1 X225.000 Y118.000
G1 X230.000 Y119.000
G1 X228.000 Y114.000
G1 X223.000 Y119.000
G1 X219.000 Y119.000
G1 X219.000 Y117.000
G1 X216.000 Y116.000
G1 X211.000 Y114.000
G1 X212.000 Y118.000
G1 X208.000 Y114.000
G1 X208.000 Y118.000
G1 X210.000 Y119.000
G0 Z1
G0 X209.000 Y119.000
G1 Z0
G1 X212.000 Y117.000
G1 X214.000 Y118.000
G1 X214.000 Y116.000
G1 X216.000 Y119.000
G1 X237.000 Y115.000
G1 X217.000 Y106.000
G1 X221.000 Y107.000
G1 X225.000 Y111.000
G1 X222.000 Y111.000
G1 X220.000 Y109.000
G1 X223.000 Y110.000
G1 X224.000 Y113.000
G1 X222.000 Y115.000
G1 X213.000 Y107.000
G1 X211.000 Y106.000
G1 X199.000 Y109.000
G1 X192.000 Y108.000
G1 X194.000 Y106.000
G1 X204.000 Y105.000
G1 X190.000 Y110.000
G1 X203.000 Y112.000
G1 X201.000 Y112.000
G1 X203.000 Y115.000
G1 X202.000 Y118.000
G1 X189.000 Y121.000
G1 X191.000 Y120.000
G0 Z1
G0 X186.000 Y121.000
G1 Z0
G1 X186.000 Y116.000
G1 X188.000 Y112.000
G1 X186.000 Y114.000
G1 X189.000 Y123.000
G1 X195.000 Y125.000
G1 X195.000 Y127.000
G1 X185.000 Y135.000
G1 X186.000 Y138.000
G1 X184.000 Y138.000
G1 X184.000 Y140.000
G1 X194.000 Y143.000
G1 X184.000 Y131.000
G1 X193.000 Y134.000
G1 X195.000 Y133.000
G1 X193.000 Y130.000
G1 X195.000 Y129.000
G1 X194.000 Y127.000
G1 X191.000 Y132.000
G1 X192.000 Y139.000
G1 X190.000 Y140.000
G1 X188.000 Y139.000
G1 X186.000 Y147.000
G1 X182.000 Y143.000
G1 X181.000 Y141.000
G1 X181.000 Y144.000
G1 X182.000 Y148.000
G1 X184.000 Y149.000
G1 X183.000 Y143.000
G1 X185.000 Y139.000
G1 X191.000 Y138.000
G1 X192.000 Y132.000
G1 X190.000 Y131.000
G1 X190.000 Y134.000
G1 X188.000 Y137.000
G1 X187.000 Y130.000
G1 X185.000 Y130.000
G1 X185.000 Y122.000
G1 X198.000 Y127.000
G1 X196.000 Y125.000
G1 X189.000 Y119.000
G1 X190.000 Y114.000
G1 X188.000 Y115.000
G1 X190.000 Y107.000
G1 X193.000 Y112.000
G1 X190.000 Y112.000
G1 X189.000 Y114.000
G1 X191.000 Y115.000
G1 X192.000 Y113.000
G1 X214.000 Y113.000
G1 X224.000 Y119.000
G0 Z1
G0 X231.000 Y116.000
G1 Z0
G1 X229.000 Y118.000
G1 X226.000 Y119.000
G1 X222.000 Y117.000
G1 X234.000 Y107.000
G1 X235.000 Y109.000
G1 X234.000 Y114.000
G1 X236.000 Y113.000
G1 X234.000 Y110.000
G1 X230.000 Y111.000
G1 X227.000 Y114.000
G1 X228.000 Y109.000
G1 X223.000 Y108.000
G1 X219.000 Y110.000
G1 X216.000 Y113.000
G1 X214.000 Y114.000
G1 X212.000 Y112.000
G1 X209.000 Y112.000
G1 X210.000 Y115.000
G1 X197.000 Y114.000
G1 X195.000 Y116.000
G1 X198.000 Y115.000
G1 X201.000 Y115.000
G1 X199.000 Y121.000
G1 X195.000 Y121.000
G1 X191.000 Y130.000
G0 Z1
G0 X191.000 Y140.000
G1 Z0
G1 X189.000 Y142.000
G1 X187.000 Y146.000
G1 X185.000 Y151.000
G1 X183.000 Y153.000
G1 X184.000 Y156.000
G1 X189.000 Y156.000
G1 X181.000 Y164.000
G1 X180.000 Y168.000
G1 X187.000 Y160.000
G1 X182.000 Y157.000
G1 X180.000 Y140.000
G1 X184.000 Y136.000
G1 X183.000 Y131.000
G1 X183.000 Y127.000
G1 X190.000 Y128.000
G1 X190.000 Y125.000
G1 X187.000 Y121.000
G1 X187.000 Y118.000
G1 X185.000 Y116.000
G1 X187.000 Y115.000
G1 X186.000 Y113.000
G1 X196.000 Y114.000
G1 X191.000 Y117.000
G1 X202.000 Y117.000
G1 X199.000 Y116.000
G1 X197.000 Y117.000
G0 Z1
G0 X196.000 Y111.000
G1 Z0
G1 X187.000 Y111.000
G1 X189.000 Y109.000
G1 X188.000 Y111.000
G1 X192.000 Y106.000
G1 X193.000 Y108.000
G1 X197.000 Y106.000
G1 X207.000 Y114.000
G1 X205.000 Y114.000
G1 X207.000 Y116.000
G1 X205.000 Y116.000
G1 X205.000 Y119.000
G1 X213.000 Y119.000
G1 X228.000 Y116.000
G1 X230.000 Y114.000
G1 X231.000 Y116.000
G1 X231.000 Y118.000
G1 X233.000 Y116.000
G1 X235.000 Y118.000
G1 X237.000 Y116.000
G1 X239.000 Y115.000
G1 X246.000 Y113.000
G1 X248.000 Y114.000
G1 X246.000 Y115.000
G1 X247.000 Y117.000
G1 X246.000 Y119.000
G1 X260.000 Y119.000
G1 X258.000 Y116.000
G1 X258.000 Y118.000
G1 X246.000 Y109.000
G1 X248.000 Y109.000
G1 X252.000 Y108.000
G1 X254.000 Y109.000
G1 X257.000 Y108.000
G1 X258.000 Y105.000
G1 X260.000 Y106.000
G1 X263.000 Y105.000
G1 X267.000 Y108.000
G1 X265.000 Y109.000
G1 X276.000 Y117.000
G1 X274.000 Y113.000
G1 X274.000 Y115.000
G1 X275.000 Y113.000
G1 X272.000 Y110.000
G1 X267.000 Y123.000
G1 X270.000 Y124.000
G1 X272.000 Y125.000
G1 X271.000 Y128.000
G1 X274.000 Y125.000
G0 Z1
G0 X270.000 Y134.000
G1 Z0
G1 X272.000 Y135.000
G1 X268.000 Y137.000
G1 X270.000 Y134.000
G1 X275.000 Y129.000
G1 X274.000 Y134.000
G1 X276.000 Y137.000
G1 X279.000 Y131.000
G1 X278.000 Y129.000
G1 X278.000 Y126.000
G1 X277.000 Y124.000
G1 X269.000 Y112.000
G1 X270.000 Y107.000
G1 X268.000 Y109.000
G1 X247.000 Y105.000
G1 X251.000 Y106.000
G1 X253.000 Y105.000
G1 X256.000 Y105.000
G1 X266.000 Y114.000
G1 X262.000 Y119.000
G1 X253.000 Y111.000
G1 X257.000 Y114.000
G1 X258.000 Y110.000
G1 X255.000 Y112.000
G1 X257.000 Y112.000
G1 X253.000 Y115.000
G0 Z1
G0 X252.000 Y114.000
G1 Z0
G1 X253.000 Y112.000
G1 X255.000 Y111.000
G1 X266.000 Y108.000
G1 X268.000 Y106.000
G1 X266.000 Y106.000
G1 X270.000 Y110.000
G1 X272.000 Y109.000
G1 X271.000 Y107.000
G1 X275.000 Y112.000
G1 X267.000 Y130.000
G1 X266.000 Y123.000
G1 X263.000 Y120.000
G1 X270.000 Y121.000
G1 X268.000 Y124.000
G1 X268.000 Y122.000
G1 X276.000 Y124.000
G1 X273.000 Y120.000
G1 X274.000 Y118.000
G1 X277.000 Y120.000
G1 X274.000 Y120.000
G1 X272.000 Y122.000
G1 X271.000 Y117.000
G1 X273.000 Y114.000
G1 X272.000 Y112.000
G1 X266.000 Y108.000
G0 Z1
G0 X264.000 Y105.000
G1 Z0
G1 X262.000 Y105.000
G1 X241.000 Y108.000
G1 X239.000 Y107.000
G1 X241.000 Y105.000
G1 X246.000 Y105.000
G1 X267.000 Y112.000
G1 X265.000 Y125.000
G1 X266.000 Y128.000
G1 X264.000 Y127.000
G1 X265.000 Y133.000
G1 X265.000 Y135.000
G1 X271.000 Y126.000
G1 X269.000 Y125.000
G1 X270.000 Y127.000
G1 X273.000 Y128.000
G1 X277.000 Y121.000
G1 X276.000 Y126.000
G1 X275.000 Y128.000
G1 X269.000 Y130.000
G1 X275.000 Y120.000
G1 X276.000 Y134.000
G1 X276.000 Y142.000
G1 X277.000 Y137.000
G1 X270.000 Y150.000
G1 X272.000 Y150.000
G1 X270.000 Y148.000
G1 X270.000 Y150.000
G0 Z1
G0 X278.000 Y153.000
G1 Z0
G1 X275.000 Y153.000
G1 X287.000 Y160.000
G1 X285.000 Y161.000
G1 X289.000 Y163.000
G1 X287.000 Y159.000
G1 X283.000 Y160.000
G1 X297.000 Y174.000
G1 X287.000 Y156.000
G1 X279.000 Y134.000
G1 X275.000 Y138.000
G1 X270.000 Y135.000
G1 X269.000 Y139.000
G1 X274.000 Y140.000
G1 X276.000 Y150.000
G1 X266.000 Y137.000
G1 X269.000 Y131.000
G1 X269.000 Y135.000
G1 X275.000 Y140.000
G1 X279.000 Y144.000
G1 X267.000 Y140.000
G1 X267.000 Y137.000
G1 X273.000 Y129.000
G1 X275.000 Y135.000
G1 X273.000 Y136.000
G0 Z1
G0 X270.000 Y137.000
G1 Z0
G1 X267.000 Y135.000
G1 X268.000 Y133.000
G1 X264.000 Y128.000
G1 X264.000 Y130.000
G1 X268.000 Y128.000
G1 X267.000 Y126.000
G1 X269.000 Y127.000
G1 X271.000 Y123.000
G1 X273.000 Y125.000
G1 X273.000 Y127.000
G1 X276.000 Y136.000
G1 X273.000 Y141.000
G1 X269.000 Y141.000
G1 X270.000 Y143.000
G1 X267.000 Y142.000
G1 X266.000 Y135.000
G1 X270.000 Y140.000
G1 X273.000 Y140.000
G1 X274.000 Y137.000
G1 X272.000 Y138.000
G1 X273.000 Y132.000
G1 X271.000 Y130.000
G1 X270.000 Y132.000
G1 X271.000 Y134.000
G1 X270.000 Y138.000
G0 Z1
G0 X270.000 Y137.000
G1 Z0
G1 X272.000 Y138.000
G1 X271.000 Y146.000
G1 X269.000 Y142.000
G1 X269.000 Y140.000
G1 X276.000 Y130.000
G1 X279.000 Y134.000
G1 X280.000 Y136.000
G1 X277.000 Y132.000
G1 X277.000 Y120.000
G1 X267.000 Y106.000
G1 X264.000 Y106.000
G1 X267.000 Y108.000
G1 X265.000 Y109.000
G1 X262.000 Y111.000
G1 X258.000 Y113.000
G1 X260.000 Y111.000
G1 X271.000 Y119.000
G1 X270.000 Y117.000
G1 X272.000 Y115.000
G1 X274.000 Y111.000
G1 X272.000 Y110.000
G1 X275.000 Y112.000
G1 X273.000 Y112.000
G1 X269.000 Y115.000
G1 X267.000 Y119.000
G1 X265.000 Y119.000
G1 X266.000 Y126.000
G1 X268.000 Y125.000
G1 X269.000 Y123.000
G1 X267.000 Y124.000
G1 X263.000 Y124.000
G1 X264.000 Y122.000
G0 Z1
G0 X265.000 Y116.000
G1 Z0
G1 X262.000 Y115.000
G1 X260.000 Y113.000
G1 X259.000 Y111.000
G1 X244.000 Y107.000
G1 X232.000 Y109.000
G1 X229.000 Y111.000
G1 X237.000 Y119.000
G1 X239.000 Y118.000
G1 X235.000 Y119.000
G1 X229.000 Y113.000
G1 X231.000 Y114.000
G1 X235.000 Y107.000
G1 X238.000 Y110.000
G1 X236.000 Y116.000
G1 X245.000 Y108.000
G1 X243.000 Y116.000
G1 X242.000 Y119.000
G1 X244.000 Y119.000
G1 X245.000 Y114.000
G1 X257.000 Y118.000
G1 X247.000 Y106.000
G1 X212.000 Y105.000
G1 X197.000 Y108.000
G1 X195.000 Y108.000
G1 X193.000 Y109.000
G1 X195.000 Y111.000
G0 Z1
G0 X191.000 Y114.000
G1 Z0
G1 X192.000 Y116.000
G1 X199.000 Y118.000
G1 X199.000 Y116.000
G1 X193.000 Y115.000
G1 X198.000 Y125.000
G1 X194.000 Y129.000
G1 X192.000 Y133.000
G1 X196.000 Y131.000
G1 X193.000 Y140.000
G1 X190.000 Y150.000
G1 X191.000 Y143.000
G1 X188.000 Y142.000
G1 X190.000 Y135.000
G1 X190.000 Y137.000
G1 X189.000 Y135.000
G1 X182.000 Y134.000
G1 X189.000 Y126.000
G1 X193.000 Y127.000
G1 X191.000 Y125.000
G1 X194.000 Y122.000
G1 X191.000 Y120.000
G1 X194.000 Y118.000
G1 X198.000 Y118.000
G1 X212.000 Y109.000
G1 X217.000 Y110.000
G0 Z1
G0 X212.000 Y115.000
G1 Z0
G1 X214.000 Y112.000
G1 X220.000 Y117.000
G1 X223.000 Y115.000
G1 X220.000 Y115.000
G1 X218.000 Y112.000
G1 X215.000 Y112.000
G1 X193.000 Y110.000
G1 X194.000 Y112.000
G1 X198.000 Y112.000
G1 X200.000 Y113.000
G1 X200.000 Y115.000
G1 X197.000 Y113.000
G1 X187.000 Y112.000
G1 X194.000 Y119.000
G1 X192.000 Y122.000
G1 X186.000 Y128.000
G1 X186.000 Y125.000
G1 X184.000 Y121.000
G1 X190.000 Y116.000
G1 X188.000 Y116.000
G1 X186.000 Y113.000
G1 X188.000 Y123.000
G1 X186.000 Y120.000
G1 X185.000 Y116.000
G1 X186.000 Y114.000
G0 Z1
G0 X190.000 Y115.000
G1 Z0
G1 X192.000 Y115.000
G1 X194.000 Y111.000
G1 X200.000 Y108.000
G1 X202.000 Y108.000
G1 X211.000 Y109.000
G1 X215.000 Y107.000
G1 X217.000 Y107.000
G1 X203.000 Y106.000
G1 X205.000 Y107.000
G1 X212.000 Y110.000
G1 X225.000 Y106.000
G1 X230.000 Y106.000
G1 X233.000 Y108.000
G1 X219.000 Y106.000
G1 X217.000 Y105.000
G1 X224.000 Y110.000
G1 X226.000 Y110.000
G1 X228.000 Y108.000
G1 X230.000 Y109.000
G1 X233.000 Y111.000
G1 X238.000 Y109.000
G1 X233.000 Y119.000
G1 X225.000 Y110.000
G1 X217.000 Y117.000
G1 X213.000 Y118.000
G1 X210.000 Y118.000
G1 X207.000 Y119.000
G1 X204.000 Y119.000
G1 X202.000 Y116.000
G1 X204.000 Y116.000
G1 X206.000 Y114.000
G1 X204.000 Y114.000
G0 Z1
G0 X200.000 Y99.000
G1 Z0
G1 X202.000 Y99.000
G1 X207.000 Y98.000
G1 X205.000 Y99.000
G1 X202.000 Y95.000
G1 X199.000 Y95.000
G1 X195.000 Y98.000
G1 X195.000 Y100.000
G1 X202.000 Y96.000
G1 X200.000 Y96.000
G1 X197.000 Y98.000
G1 X197.000 Y95.000
G1 X199.000 Y94.000
G1 X201.000 Y88.000
G1 X206.000 Y93.000
G1 X209.000 Y93.000
G1 X206.000 Y92.000
G1 X203.000 Y89.000
G1 X201.000 Y86.000
G1 X200.000 Y84.000
G1 X204.000 Y77.000
G1 X206.000 Y75.000
G1 X206.000 Y73.000
G1 X208.000 Y72.000
G1 X213.000 Y69.000
G1 X218.000 Y79.000
G1 X222.000 Y83.000
G1 X214.000 Y85.000
G1 X211.000 Y84.000
G1 X209.000 Y82.000
G1 X211.000 Y80.000
G1 X213.000 Y81.000
G1 X216.000 Y79.000
G1 X213.000 Y78.000
G1 X211.000 Y77.000
G1 X209.000 Y78.000
G1 X210.000 Y80.000
G1 X208.000 Y82.000
G1 X206.000 Y81.000
G1 X209.000 Y74.000
G1 X210.000 Y76.000
G1 X213.000 Y72.000
G1 X216.000 Y76.000
G1 X220.000 Y76.000
G1 X228.000 Y72.000
G1 X231.000 Y69.000
G1 X227.000 Y69.000
G1 X229.000 Y70.000
G1 X232.000 Y71.000
G1 X237.000 Y75.000
G1 X241.000 Y70.000
G1 X247.000 Y70.000
G1 X251.000 Y72.000
G1 X256.000 Y71.000
G1 X256.000 Y68.000
G1 X262.000 Y67.000
G1 X265.000 Y69.000
G1 X261.000 Y69.000
G1 X260.000 Y74.000
G1 X259.000 Y82.000
G1 X263.000 Y88.000
G1 X263.000 Y90.000
G1 X265.000 Y95.000
G1 X252.000 Y86.000
G1 X253.000 Y84.000
G1 X250.000 Y83.000
G1 X248.000 Y82.000
G1 X251.000 Y79.000
G1 X251.000 Y75.000
G1 X248.000 Y72.000
G1 X250.000 Y71.000
G1 X248.000 Y74.000
G1 X247.000 Y72.000
G1 X249.000 Y74.000
G1 X243.000 Y81.000
G1 X250.000 Y79.000
G1 X250.000 Y77.000
G1 X257.000 Y78.000
G1 X257.000 Y76.000
G1 X262.000 Y80.000
G1 X261.000 Y84.000
G1 X260.000 Y86.000
G1 X258.000 Y83.000
G1 X258.000 Y81.000
G1 X255.000 Y79.000
G1 X254.000 Y75.000
G1 X253.000 Y67.000
G1 X252.000 Y70.000
G1 X250.000 Y70.000
G1 X233.000 Y73.000
G1 X235.000 Y72.000
G1 X234.000 Y70.000
G1 X232.000 Y69.000
G1 X240.000 Y69.000
G1 X236.000 Y68.000
G1 X235.000 Y66.000
G1 X216.000 Y54.000
G1 X219.000 Y54.000
G1 X220.000 Y56.000
G1 X218.000 Y57.000
G1 X247.000 Y56.000
G1 X243.000 Y52.000
G1 X248.000 Y53.000
G1 X250.000 Y54.000
G1 X269.000 Y57.000
G1 X260.000 Y58.000
G1 X268.000 Y59.000
G1 X261.000 Y61.000
G1 X258.000 Y61.000
G1 X263.000 Y64.000
G1 X265.000 Y65.000
G1 X265.000 Y63.000
G1 X263.000 Y63.000
G1 X267.000 Y65.000
G1 X267.000 Y63.000
G1 X269.000 Y62.000
G1 X270.000 Y59.000
G1 X267.000 Y61.000
G1 X268.000 Y63.000
G1 X267.000 Y67.000
G1 X260.000 Y80.000
G1 X260.000 Y78.000
G1 X246.000 Y96.000
G1 X241.000 Y85.000
G1 X237.000 Y87.000
G1 X235.000 Y86.000
G1 X237.000 Y85.000
G1 X238.000 Y82.000
G1 X234.000 Y80.000
G1 X236.000 Y82.000
G1 X239.000 Y81.000
G1 X256.000 Y96.000
G1 X258.000 Y94.000
G1 X265.000 Y97.000
G1 X266.000 Y99.000
G1 X253.000 Y99.000
G1 X250.000 Y98.000
G1 X244.000 Y89.000
G1 X246.000 Y91.000
G1 X250.000 Y89.000
G1 X249.000 Y91.000
G1 X252.000 Y96.000
G1 X253.000 Y94.000
G1 X256.000 Y94.000
G1 X259.000 Y97.000
G1 X261.000 Y98.000
G1 X261.000 Y96.000
G1 X260.000 Y94.000
G1 X257.000 Y92.000
G1 X256.000 Y88.000
G1 X260.000 Y89.000
G1 X262.000 Y92.000
G1 X264.000 Y93.000
G1 X264.000 Y85.000
G1 X266.000 Y83.000
G1 X267.000 Y81.000
G1 X256.000 Y63.000
G1 X259.000 Y64.000
G1 X257.000 Y63.000
G1 X263.000 Y70.000
G1 X263.000 Y73.000
G1 X261.000 Y75.000
G1 X263.000 Y76.000
G1 X266.000 Y82.000
G1 X256.000 Y91.000
G1 X252.000 Y90.000
G1 X250.000 Y92.000
G1 X231.000 Y98.000
G1 X225.000 Y99.000
G1 X220.000 Y96.000
G1 X227.000 Y96.000
G1 X230.000 Y99.000
G1 X240.000 Y98.000
G1 X242.000 Y100.000
G1 X246.000 Y94.000
G1 X236.000 Y93.000
G1 X233.000 Y86.000
G1 X232.000 Y84.000
G1 X227.000 Y88.000
G1 X218.000 Y89.000
G1 X210.000 Y85.000
G1 X207.000 Y86.000
G1 X205.000 Y86.000
G1 X211.000 Y94.000
G1 X214.000 Y93.000
G1 X218.000 Y98.000
G1 X222.000 Y98.000
G1 X214.000 Y97.000
G1 X210.000 Y98.000
G1 X207.000 Y99.000
G1 X211.000 Y93.000
G1 X212.000 Y91.000
G1 X211.000 Y89.000
G1 X209.000 Y90.000
G1 X211.000 Y91.000
G1 X201.000 Y63.000
G1 X199.000 Y66.000
G1 X199.000 Y63.000
G1 X198.000 Y61.000
G1 X208.000 Y54.000
G1 X208.000 Y56.000
G1 X204.000 Y58.000
G1 X211.000 Y63.000
G1 X215.000 Y64.000
G1 X222.000 Y65.000
G1 X226.000 Y65.000
G1 X228.000 Y66.000
G1 X233.000 Y46.000
G1 X227.000 Y48.000
G1 X224.000 Y50.000
G1 X225.000 Y47.000
G1 X228.000 Y47.000
G1 X230.000 Y49.000
G1 X237.000 Y49.000
G1 X239.000 Y48.000
G1 X236.000 Y46.000
G1 X234.000 Y46.000
G1 X237.000 Y46.000
G1 X240.000 Y44.000
G1 X244.000 Y44.000
G1 X244.000 Y46.000
G1 X254.000 Y47.000
G1 X258.000 Y46.000
G1 X255.000 Y45.000
G1 X257.000 Y44.000
G1 X259.000 Y46.000
G1 X257.000 Y62.000
G1 X223.000 Y59.000
G1 X217.000 Y60.000
G1 X209.000 Y56.000
G1 X209.000 Y54.000
G1 X210.000 Y52.000
G1 X222.000 Y49.000
G1 X224.000 Y49.000
G1 X221.000 Y51.000
G1 X225.000 Y56.000
G1 X228.000 Y55.000
G1 X231.000 Y52.000
G1 X227.000 Y53.000
G1 X229.000 Y52.000
G1 X237.000 Y51.000
G1 X241.000 Y53.000
G1 X245.000 Y53.000
G1 X247.000 Y55.000
G1 X257.000 Y56.000
G1 X255.000 Y57.000
G1 X259.000 Y56.000
G1 X262.000 Y54.000
G1 X265.000 Y49.000
G1 X267.000 Y49.000
G1 X264.000 Y47.000
G1 X264.000 Y49.000
G1 X259.000 Y52.000
G1 X262.000 Y52.000
G0 Z1
G0 X259.000 Y50.000
G1 Z0
G1 X261.000 Y50.000
G1 X260.000 Y47.000
G1 X263.000 Y45.000
G1 X259.000 Y45.000
G1 X262.000 Y47.000
G1 X260.000 Y60.000
G1 X253.000 Y72.000
G1 X255.000 Y73.000
G1 X251.000 Y73.000
G1 X250.000 Y75.000
G1 X248.000 Y78.000
G1 X245.000 Y79.000
G1 X245.000 Y74.000
G1 X243.000 Y73.000
G1 X246.000 Y70.000
G1 X249.000 Y69.000
G1 X251.000 Y66.000
G1 X253.000 Y64.000
G1 X251.000 Y62.000
G1 X248.000 Y62.000
G1 X246.000 Y68.000
G1 X243.000 Y68.000
G1 X240.000 Y71.000
G1 X244.000 Y70.000
G1 X245.000 Y68.000
G0 Z1
G0 X251.000 Y68.000
G1 Z0
G1 X252.000 Y66.000
G1 X256.000 Y66.000
G1 X252.000 Y59.000
G1 X263.000 Y61.000
G1 X266.000 Y56.000
G1 X267.000 Y61.000
G1 X262.000 Y59.000
G1 X262.000 Y56.000
G1 X270.000 Y52.000
G1 X268.000 Y49.000
G1 X263.000 Y50.000
G1 X263.000 Y52.000
G1 X260.000 Y53.000
G1 X259.000 Y51.000
G1 X252.000 Y54.000
G1 X259.000 Y47.000
G1 X256.000 Y46.000
G1 X262.000 Y49.000
G1 X262.000 Y51.000
G1 X265.000 Y52.000
G1 X270.000 Y57.000
G1 X270.000 Y62.000
G0 Z1
G0 X265.000 Y69.000
G1 Z0
G1 X266.000 Y71.000
G1 X269.000 Y73.000
G1 X266.000 Y66.000
G1 X261.000 Y66.000
G1 X262.000 Y72.000
G1 X262.000 Y75.000
G1 X259.000 Y73.000
G1 X260.000 Y71.000
G1 X257.000 Y69.000
G1 X255.000 Y67.000
G1 X257.000 Y67.000
G1 X261.000 Y65.000
G1 X236.000 Y65.000
G1 X236.000 Y67.000
G1 X225.000 Y76.000
G1 X204.000 Y87.000
G1 X203.000 Y91.000
G1 X205.000 Y93.000
G1 X204.000 Y91.000
G1 X206.000 Y90.000
G1 X205.000 Y88.000
G1 X206.000 Y85.000
G1 X202.000 Y80.000
G1 X204.000 Y79.000
G1 X203.000 Y83.000
G1 X208.000 Y76.000
G1 X206.000 Y74.000
G1 X214.000 Y69.000
G1 X212.000 Y71.000
G1 X209.000 Y68.000
G1 X205.000 Y69.000
G1 X208.000 Y63.000
G1 X208.000 Y61.000
G1 X210.000 Y63.000
G1 X214.000 Y59.000
G1 X211.000 Y57.000
G1 X211.000 Y54.000
G1 X216.000 Y55.000
G1 X220.000 Y50.000
G1 X218.000 Y47.000
G1 X209.000 Y46.000
G1 X217.000 Y52.000
G1 X215.000 Y52.000
G1 X218.000 Y54.000
G1 X222.000 Y51.000
G1 X220.000 Y58.000
G1 X230.000 Y66.000
G1 X232.000 Y63.000
G1 X234.000 Y61.000
G1 X240.000 Y61.000
G1 X233.000 Y94.000
G1 X231.000 Y92.000
G1 X238.000 Y90.000
G1 X240.000 Y87.000
G1 X238.000 Y85.000
G1 X235.000 Y88.000
G1 X238.000 Y88.000
G1 X234.000 Y94.000
G1 X236.000 Y99.000
G1 X234.000 Y100.000
G1 X230.000 Y98.000
G1 X232.000 Y97.000
G1 X230.000 Y95.000
G1 X229.000 Y92.000
G1 X235.000 Y89.000
G1 X239.000 Y94.000
G1 X250.000 Y96.000
G1 X261.000 Y99.000
G1 X266.000 Y94.000
G1 X263.000 Y95.000
G1 X259.000 Y95.000
G1 X265.000 Y99.000
G1 X270.000 Y92.000
G1 X268.000 Y87.000
G1 X267.000 Y84.000
G1 X270.000 Y85.000
G1 X270.000 Y80.000
G1 X262.000 Y93.000
G1 X261.000 Y91.000
G1 X258.000 Y92.000
G1 X261.000 Y94.000
G1 X270.000 Y95.000
G1 X256.000 Y79.000
G1 X256.000 Y81.000
G1 X253.000 Y76.000
G1 X248.000 Y76.000
G1 X251.000 Y78.000
G1 X249.000 Y79.000
G1 X250.000 Y82.000
G1 X248.000 Y83.000
G1 X250.000 Y84.000
G1 X250.000 Y87.000
G1 X248.000 Y88.000
G1 X250.000 Y90.000
G1 X252.000 Y91.000
G1 X257.000 Y94.000
G1 X255.000 Y95.000
G1 X250.000 Y99.000
G1 X252.000 Y100.000
G1 X245.000 Y100.000
G1 X249.000 Y98.000
G1 X245.000 Y98.000
G1 X240.000 Y100.000
G1 X238.000 Y97.000
G1 X231.000 Y100.000
G1 X225.000 Y93.000
G1 X222.000 Y92.000
G1 X225.000 Y90.000
G1 X221.000 Y89.000
G1 X229.000 Y96.000
G1 X255.000 Y89.000
G1 X252.000 Y87.000
G1 X257.000 Y83.000
G1 X259.000 Y81.000
G1 X263.000 Y86.000
G1 X262.000 Y90.000
G1 X256.000 Y92.000
G1 X254.000 Y93.000
G1 X247.000 Y96.000
G1 X259.000 Y87.000
G1 X263.000 Y92.000
G1 X259.000 Y88.000
G1 X257.000 Y87.000
G1 X259.000 Y86.000
G1 X252.000 Y83.000
G1 X255.000 Y76.000
G1 X257.000 Y74.000
G1 X256.000 Y77.000
G1 X267.000 Y66.000
G1 X269.000 Y67.000
G1 X270.000 Y77.000
G1 X266.000 Y77.000
G1 X269.000 Y72.000
G1 X264.000 Y74.000
G1 X264.000 Y61.000
G1 X261.000 Y59.000
G1 X260.000 Y61.000
G1 X256.000 Y59.000
G1 X243.000 Y60.000
G1 X248.000 Y52.000
G1 X247.000 Y50.000
G1 X241.000 Y48.000
G1 X246.000 Y47.000
G1 X248.000 Y48.000
G1 X249.000 Y46.000
G1 X252.000 Y48.000
G1 X253.000 Y50.000
G1 X251.000 Y50.000
G1 X250.000 Y47.000
G1 X245.000 Y45.000
G1 X252.000 Y45.000
G1 X254.000 Y44.000
G1 X253.000 Y47.000
G1 X257.000 Y50.000
G1 X254.000 Y50.000
G1 X251.000 Y46.000
G1 X250.000 Y50.000
G1 X240.000 Y46.000
G1 X238.000 Y48.000
G1 X248.000 Y58.000
G1 X240.000 Y56.000
G1 X236.000 Y70.000
G1 X236.000 Y74.000
G1 X243.000 Y64.000
G1 X233.000 Y64.000
G1 X229.000 Y69.000
G1 X232.000 Y68.000
G1 X229.000 Y82.000
G1 X227.000 Y79.000
G1 X229.000 Y87.000
G1 X231.000 Y84.000
G1 X229.000 Y84.000
G1 X232.000 Y77.000
G1 X228.000 Y76.000
G1 X225.000 Y79.000
G1 X223.000 Y77.000
G1 X222.000 Y81.000
G1 X217.000 Y83.000
G1 X221.000 Y88.000
G1 X204.000 Y100.000
G1 X201.000 Y100.000
G1 X198.000 Y99.000
G1 X198.000 Y96.000
G1 X203.000 Y96.000
G1 X206.000 Y99.000
G1 X206.000 Y97.000
G1 X198.000 Y92.000
G1 X198.000 Y94.000
G1 X192.000 Y96.000
G1 X195.000 Y86.000
G1 X192.000 Y84.000
G1 X191.000 Y90.000
G1 X200.000 Y77.000
G1 X198.000 Y75.000
G1 X200.000 Y75.000
G1 X195.000 Y70.000
G1 X194.000 Y73.000
G1 X192.000 Y70.000
G1 X195.000 Y68.000
G1 X198.000 Y65.000
G1 X201.000 Y65.000
G1 X198.000 Y67.000
G1 X195.000 Y61.000
G1 X198.000 Y57.000
G1 X197.000 Y55.000
G1 X195.000 Y55.000
G1 X210.000 Y50.000
G1 X207.000 Y45.000
G1 X200.000 Y45.000
G1 X197.000 Y49.000
G1 X199.000 Y55.000
G1 X192.000 Y53.000
G1 X201.000 Y61.000
G1 X193.000 Y67.000
G1 X204.000 Y76.000
G1 X204.000 Y73.000
G1 X203.000 Y71.000
G1 X202.000 Y73.000
G1 X202.000 Y79.000
G1 X210.000 Y74.000
G1 X209.000 Y80.000
G1 X212.000 Y75.000
G1 X210.000 Y73.000
G1 X219.000 Y73.000
G1 X219.000 Y69.000
G1 X222.000 Y69.000
G1 X220.000 Y67.000
G1 X221.000 Y70.000
G1 X225.000 Y69.000
G1 X220.000 Y75.000
G1 X217.000 Y75.000
G1 X218.000 Y67.000
G1 X225.000 Y65.000
G1 X224.000 Y68.000
G1 X217.000 Y65.000
G1 X208.000 Y90.000
G1 X204.000 Y93.000
G1 X199.000 Y91.000
G1 X200.000 Y94.000
G1 X209.000 Y94.000
G1 X209.000 Y100.000
G1 X201.000 Y99.000
G1 X198.000 Y100.000
G1 X200.000 Y100.000
G1 X202.000 Y100.000
G1 X218.000 Y99.000
G1 X227.000 Y100.000
G1 X267.000 Y100.000
G1 X268.000 Y75.000
G1 X268.000 Y62.000
G1 X230.000 Y62.000
G1 X200.000 Y59.000
G1 X201.000 Y85.000
G1 X240.000 Y88.000
G1 X211.000 Y62.000
G1 X218.000 Y64.000
G1 X240.000 Y64.000
G1 X255.000 Y66.000
G1 X252.000 Y81.000
G1 X255.000 Y81.000
G1 X260.000 Y64.000
G1 X267.000 Y68.000
G1 X260.000 Y98.000
G1 X227.000 Y92.000
G1 X208.000 Y92.000
G1 X191.000 Y80.000
G1 X191.000 Y54.000
G1 X210.000 Y59.000
G1 X240.000 Y55.000
G1 X243.000 Y55.000
G1 X270.000 Y58.000
G1 X270.000 Y56.000
G1 X240.000 Y54.000
G1 X225.000 Y52.000
G1 X225.000 Y50.000
G1 X266.000 Y50.000
G1 X246.000 Y44.000
G1 X228.000 Y49.000
G1 X214.000 Y45.000
G1 X193.000 Y49.000
G1 X210.000 Y58.000
G1 X210.000 Y54.000
G1 X218.000 Y55.000
G1 X224.000 Y56.000
G1 X203.000 Y45.000
G1 X196.000 Y46.000
G1 X211.000 Y53.000
G1 X193.000 Y54.000
G1 X193.000 Y80.000
G1 X196.000 Y80.000
G1 X194.000 Y56.000
G1 X218.000 Y77.000
G1 X227.000 Y78.000
G1 X235.000 Y75.000
G1 X261.000 Y87.000
G1 X263.000 Y78.000
G1 X250.000 Y95.000
G1 X255.000 Y96.000
G1 X232.000 Y80.000
G1 X213.000 Y91.000
G1 X227.000 Y90.000
G1 X250.000 Y94.000
G1 X248.000 Y92.000
G1 X220.000 Y88.000
G1 X204.000 Y70.000
G1 X208.000 Y85.000
G1 X221.000 Y78.000
G1 X232.000 Y86.000
G1 X251.000 Y67.000
G1 X219.000 Y68.000
G1 X246.000 Y82.000
G1 X261.000 Y88.000
G1 X258.000 Y97.000
G1 X240.000 Y80.000
G1 X227.000 Y75.000
G1 X235.000 Y70.000
G1 X249.000 Y75.000
G1 X252.000 Y67.000
G1 X248.000 Y71.000
G1 X233.000 Y74.000
G1 X229.000 Y75.000
G1 X205.000 Y65.000
G1 X225.000 Y77.000
G1 X216.000 Y74.000
G1 X208.000 Y81.000
G1 X207.000 Y74.000
G1 X209.000 Y73.000
G1 X217.000 Y79.000
G1 X226.000 Y84.000
G1 X232.000 Y83.000
G1 X235.000 Y87.000
G1 X244.000 Y82.000
G1 X253.000 Y89.000
G1 X265.000 Y66.000
G1 X249.000 Y57.000
G1 X235.000 Y57.000
G1 X226.000 Y60.000
G1 X217.000 Y59.000
G1 X213.000 Y62.000
G1 X215.000 Y62.000
G1 X221.000 Y63.000
G1 X235.000 Y58.000
G1 X244.000 Y60.000
G1 X263.000 Y59.000
G1 X270.000 Y61.000
G1 X269.000 Y70.000
G1 X270.000 Y78.000
G1 X269.000 Y100.000
G1 X262.000 Y97.000
G1 X266.000 Y79.000
G1 X266.000 Y75.000
G1 X264.000 Y71.000
G1 X260.000 Y70.000
G1 X260.000 Y67.000
G1 X249.000 Y63.000
G1 X233.000 Y67.000
G1 X230.000 Y67.000
G1 X215.000 Y65.000
G1 X203.000 Y63.000
G1 X201.000 Y67.000
G1 X214.000 Y75.000
G1 X208.000 Y77.000
G1 X203.000 Y84.000
G1 X202.000 Y72.000
G1 X204.000 Y66.000
G1 X210.000 Y72.000
G1 X213.000 Y71.000
G1 X219.000 Y74.000
G1 X239.000 Y68.000
G1 X248.000 Y69.000
G1 X255.000 Y63.000
G1 X259.000 Y76.000
G1 X255.000 Y83.000
G1 X242.000 Y77.000
G1 X244.000 Y76.000
G1 X249.000 Y78.000
G1 X254.000 Y67.000
G1 X256.000 Y73.000
G1 X254.000 Y80.000
G1 X252.000 Y78.000
G1 X252.000 Y73.000
G1 X255.000 Y74.000
G1 X258.000 Y76.000
G1 X259.000 Y70.000
G1 X265.000 Y79.000
G1 X266.000 Y88.000
G1 X266.000 Y97.000
G1 X262.000 Y94.000
G1 X254.000 Y89.000
G1 X249.000 Y84.000
G1 X247.000 Y89.000
G1 X235.000 Y79.000
G1 X225.000 Y80.000
G1 X222.000 Y85.000
G1 X216.000 Y82.000
G1 X218.000 Y81.000
G1 X222.000 Y84.000
G1 X202.000 Y91.000
G1 X213.000 Y98.000
G1 X232.000 Y96.000
G1 X249.000 Y99.000
G1 X257.000 Y98.000
G1 X259.000 Y89.000
G1 X252.000 Y85.000
G1 X234.000 Y92.000
G1 X210.000 Y95.000
G1 X210.000 Y93.000
G1 X196.000 Y100.000
G1 X192.000 Y82.000
G1 X204.000 Y95.000
G1 X195.000 Y92.000
G1 X200.000 Y83.000
G1 X196.000 Y71.000
G1 X197.000 Y60.000
G1 X200.000 Y58.000
G1 X195.000 Y56.000
G1 X196.000 Y62.000
G1 X196.000 Y65.000
G1 X199.000 Y70.000
G1 X198.000 Y64.000
G1 X199.000 Y61.000
G1 X209.000 Y63.000
G1 X205.000 Y60.000
G1 X218.000 Y52.000
G1 X228.000 Y56.000
G1 X224.000 Y53.000
G1 X212.000 Y49.000
G1 X222.000 Y48.000
G1 X228.000 Y45.000
G1 X240.000 Y45.000
G1 X242.000 Y49.000
G1 X256.000 Y48.000
G1 X265.000 Y46.000
G1 X265.000 Y48.000
G1 X270.000 Y54.000
G1 X257.000 Y51.000
G1 X246.000 Y51.000
G1 X236.000 Y52.000
G1 X226.000 Y51.000
G1 X209.000 Y47.000
G1 X199.000 Y51.000
G1 X195.000 Y52.000
G1 X193.000 Y52.000
G1 X203.000 Y48.000
G1 X211.000 Y50.000
G1 X215.000 Y53.000
G1 X213.000 Y53.000
G1 X209.000 Y51.000
G1 X206.000 Y50.000
G1 X197.000 Y53.000
G1 X191.000 Y53.000
G1 X193.000 Y50.000
G1 X210.000 Y44.000
G1 X238.000 Y44.000
G1 X230.000 Y28.000
G1 X250.000 Y38.000
G1 X220.000 Y34.000
G1 X233.000 Y42.000
G1 X215.000 Y38.000
G1 X222.000 Y29.000
G1 X243.000 Y36.000
G1 X247.000 Y35.000
G1 X240.000 Y30.000
G1 X231.000 Y28.000
G1 X222.000 Y33.000
G1 X231.000 Y33.000
G1 X239.000 Y31.000
G1 X244.000 Y34.000
G1 X242.000 Y35.000
G1 X239.000 Y36.000
G1 X234.000 Y41.000
G1 X227.000 Y36.000
G1 X218.000 Y38.000
G1 X225.000 Y34.000
G1 X229.000 Y34.000
G1 X238.000 Y35.000
G1 X242.000 Y32.000
G1 X247.000 Y42.000
G1 X237.000 Y40.000
G1 X240.000 Y42.000
G1 X244.000 Y42.000
G1 X244.000 Y39.000
G1 X237.000 Y39.000
G1 X228.000 Y36.000
G1 X220.000 Y42.000
G1 X211.000 Y39.000
G1 X219.000 Y31.000
G1 X213.000 Y39.000
G1 X217.000 Y39.000
G1 X222.000 Y42.000
G1 X230.000 Y42.000
G1 X226.000 Y39.000
G1 X229.000 Y38.000
G1 X231.000 Y40.000
G1 X233.000 Y37.000
G1 X237.000 Y37.000
G1 X233.000 Y41.000
G1 X238.000 Y42.000
G1 X242.000 Y40.000
G1 X246.000 Y41.000
G1 X249.000 Y39.000
G1 X250.000 Y42.000
G1 X248.000 Y41.000
G1 X251.000 Y40.000
G1 X249.000 Y40.000
G1 X246.000 Y38.000
G1 X245.000 Y40.000
G1 X238.000 Y38.000
G1 X244.000 Y38.000
G1 X233.000 Y66.000
G1 X227.000 Y66.000
G1 X229.000 Y65.000
G1 X239.000 Y65.000
G1 X241.000 Y66.000
G1 X250.000 Y66.000
G1 X238.000 Y75.000
G1 X247.000 Y75.000
G1 X248.000 Y77.000
G1 X246.000 Y76.000
G1 X241.000 Y80.000
G1 X244.000 Y83.000
G1 X257.000 Y93.000
G1 X254.000 Y92.000
G1 X264.000 Y99.000
G1 X265.000 Y88.000
G1 X265.000 Y86.000
G1 X261.000 Y76.000
G1 X264.000 Y75.000
G1 X266.000 Y68.000
G1 X256.000 Y64.000
G1 X251.000 Y63.000
G1 X249.000 Y64.000
G1 X246.000 Y63.000
G1 X223.000 Y63.000
G1 X221.000 Y62.000
G1 X217.000 Y63.000
G1 X219.000 Y62.000
G1 X223.000 Y58.000
G1 X230.000 Y58.000
G1 X244.000 Y61.000
G1 X254.000 Y61.000
G1 X259.000 Y60.000
G1 X266.000 Y61.000
G1 X268.000 Y99.000
G1 X270.000 Y96.000
G1 X270.000 Y90.000
G1 X269.000 Y86.000
G1 X269.000 Y74.000
G1 X270.000 Y72.000
G1 X270.000 Y66.000
G1 X269.000 Y64.000
G1 X268.000 Y61.000
G1 X270.000 Y60.000
G1 X262.000 Y53.000
G1 X260.000 Y53.000
G1 X248.000 Y54.000
G1 X255.000 Y52.000
G1 X263.000 Y51.000
G1 X267.000 Y52.000
G1 X268.000 Y49.000
G1 X266.000 Y47.000
G1 X255.000 Y44.000
G1 X244.000 Y48.000
G1 X248.000 Y44.000
G1 X253.000 Y44.000
G1 X255.000 Y46.000
G1 X258.000 Y47.000
G1 X262.000 Y45.000
G1 X263.000 Y48.000
G1 X260.000 Y49.000
G1 X249.000 Y49.000
G1 X247.000 Y48.000
G1 X242.000 Y46.000
G1 X241.000 Y49.000
G1 X234.000 Y48.000
G1 X230.000 Y46.000
G1 X219.000 Y45.000
G1 X216.000 Y45.000
G1 X213.000 Y47.000
G1 X219.000 Y47.000
G1 X224.000 Y52.000
G1 X229.000 Y55.000
G1 X236.000 Y54.000
G1 X238.000 Y51.000
G1 X251.000 Y52.000
G1 X257.000 Y54.000
G1 X260.000 Y54.000
G1 X263.000 Y55.000
G1 X269.000 Y55.000
G1 X270.000 Y52.000
G1 X269.000 Y50.000
G1 X268.000 Y53.000
G1 X265.000 Y54.000
G1 X263.000 Y53.000
G1 X265.000 Y51.000
G1 X267.000 Y51.000
G1 X256.000 Y60.000
G1 X238.000 Y58.000
G1 X236.000 Y60.000
G1 X238.000 Y61.000
G1 X241.000 Y61.000
G1 X243.000 Y58.000
G1 X249.000 Y58.000
G1 X254.000 Y57.000
G1 X257.000 Y58.000
G1 X252.000 Y58.000
G1 X250.000 Y57.000
G1 X228.000 Y86.000
G1 X223.000 Y86.000
G1 X228.000 Y85.000
G1 X232.000 Y89.000
G1 X240.000 Y89.000
G1 X245.000 Y86.000
G1 X242.000 Y84.000
G1 X240.000 Y81.000
G1 X239.000 Y84.000
G1 X235.000 Y80.000
G1 X239.000 Y76.000
G1 X241.000 Y76.000
G1 X243.000 Y69.000
G1 X237.000 Y70.000
G1 X231.000 Y73.000
G1 X223.000 Y69.000
G1 X216.000 Y71.000
G1 X209.000 Y61.000
G1 X213.000 Y61.000
G1 X218.000 Y56.000
G1 X211.000 Y58.000
G1 X213.000 Y56.000
G1 X216.000 Y56.000
G1 X204.000 Y54.000
G1 X213.000 Y46.000
G1 X209.000 Y45.000
G1 X206.000 Y46.000
G1 X204.000 Y45.000
G1 X202.000 Y46.000
G1 X200.000 Y46.000
G1 X198.000 Y45.000
G1 X204.000 Y61.000
G1 X201.000 Y60.000
G1 X201.000 Y55.000
G1 X198.000 Y55.000
G1 X195.000 Y59.000
G1 X194.000 Y70.000
G1 X194.000 Y79.000
G1 X200.000 Y73.000
G1 X199.000 Y78.000
G1 X194.000 Y86.000
G1 X198.000 Y92.000
G1 X201.000 Y93.000
G1 X193.000 Y84.000
G1 X197.000 Y80.000
G1 X199.000 Y83.000
G1 X200.000 Y76.000
G1 X198.000 Y74.000
G1 X197.000 Y68.000
G1 X199.000 Y73.000
G1 X202.000 Y70.000
G1 X205.000 Y78.000
G1 X204.000 Y81.000
G1 X207.000 Y84.000
G1 X214.000 Y79.000
G1 X215.000 Y76.000
G1 X221.000 Y79.000
G1 X218.000 Y82.000
G1 X201.000 Y91.000
G1 X210.000 Y100.000
G1 X220.000 Y100.000
G1 X230.000 Y97.000
G1 X237.000 Y99.000
G1 X245.000 Y99.000
G1 X251.000 Y97.000
G1 X241.000 Y97.000
G1 X238.000 Y95.000
G1 X244.000 Y96.000
G1 X222.000 Y95.000
G1 X218.000 Y95.000
G1 X202.000 Y98.000
G1 X195.000 Y93.000
G1 X191.000 Y95.000
G1 X191.000 Y81.000
G1 X194.000 Y100.000
G1 X191.000 Y97.000
G1 X192.000 Y100.000
G1 X194.000 Y95.000
G1 X206.000 Y82.000
G1 X203.000 Y76.000
G1 X203.000 Y74.000
G1 X207.000 Y70.000
G1 X204.000 Y68.000
G1 X203.000 Y66.000
G1 X204.000 Y64.000
G1 X206.000 Y64.000
G1 X209.000 Y66.000
G1 X211.000 Y66.000
G1 X223.000 Y67.000
G1 X226.000 Y67.000
