(GCode generated by: DrawingBotV3 1.6.1)
(Time: 2023-07-09 at 23:51:35 CEST)
G21 (programming in millimeters, mm)
G90 (programming in absolute positioning)
G28 (auto homing)
G1 F8000 (set speed)
G0 Z1

G0 X390.000 Y298.500
G1 Z0
G1 X396.000 Y301.500
G1 X405.000 Y262.500
G1 X378.000 Y295.500
G1 X396.000 Y289.500
G1 X396.000 Y277.500
G1 X429.000 Y310.500
G1 X402.000 Y253.500
G1 X381.000 Y286.500
G1 X381.000 Y265.500
G1 X396.000 Y259.500
G1 X414.000 Y292.500
G1 X387.000 Y334.500
G1 X390.000 Y343.500
G1 X399.000 Y319.500
G1 X393.000 Y307.500
G1 X408.000 Y295.500
G1 X411.000 Y343.500
G1 X405.000 Y310.500
G1 X402.000 Y286.500
G1 X405.000 Y292.500
G1 X378.000 Y301.500
G1 X375.000 Y331.500
G1 X357.000 Y355.500
G1 X357.000 Y367.500
G1 X381.000 Y397.500
G1 X423.000 Y397.500
G1 X423.000 Y391.500
G1 X378.000 Y391.500
G1 X372.000 Y379.500
G1 X360.000 Y364.500
G1 X366.000 Y364.500
G1 X360.000 Y340.500
G1 X372.000 Y325.500
G1 X372.000 Y313.500
G1 X381.000 Y316.500
G1 X387.000 Y301.500
G1 X378.000 Y298.500
G1 X414.000 Y262.500
G1 X423.000 Y280.500
G1 X405.000 Y253.500
G1 X402.000 Y262.500
G1 X384.000 Y268.500
G1 X384.000 Y277.500
G1 X393.000 Y286.500
G1 X393.000 Y271.500
G1 X399.000 Y274.500
G1 X396.000 Y268.500
G1 X387.000 Y271.500
G1 X390.000 Y277.500
G1 X384.000 Y271.500
G1 X396.000 Y253.500
G1 X420.000 Y262.500
G1 X423.000 Y271.500
G1 X414.000 Y298.500
G1 X447.000 Y364.500
G1 X432.000 Y376.500
G1 X426.000 Y394.500
G1 X381.000 Y394.500
G1 X381.000 Y385.500
G1 X387.000 Y388.500
G1 X360.000 Y376.500
G1 X366.000 Y382.500
G1 X375.000 Y394.500
G1 X366.000 Y385.500
G1 X378.000 Y388.500
G1 X387.000 Y400.500
G1 X417.000 Y400.500
G1 X447.000 Y358.500
G1 X438.000 Y337.500
G1 X429.000 Y313.500
G1 X423.000 Y307.500
G1 X426.000 Y316.500
G1 X429.000 Y322.500
G1 X438.000 Y328.500
G1 X435.000 Y334.500
G1 X441.000 Y337.500
G1 X444.000 Y343.500
G1 X438.000 Y367.500
G1 X441.000 Y361.500
G1 X438.000 Y355.500
G1 X438.000 Y349.500
G1 X429.000 Y331.500
G1 X435.000 Y322.500
G1 X432.000 Y316.500
G1 X423.000 Y319.500
G1 X417.000 Y307.500
G1 X426.000 Y298.500
G1 X423.000 Y286.500
G1 X405.000 Y295.500
G1 X417.000 Y280.500
G1 X414.000 Y271.500
G1 X411.000 Y283.500
G1 X408.000 Y271.500
G1 X414.000 Y268.500
G1 X375.000 Y310.500
G1 X378.000 Y325.500
G1 X372.000 Y328.500
G1 X363.000 Y343.500
G1 X366.000 Y349.500
G1 X366.000 Y358.500
G1 X357.000 Y352.500
G1 X360.000 Y358.500
G1 X366.000 Y361.500
G1 X360.000 Y361.500
G1 X360.000 Y373.500
G1 X366.000 Y367.500
G1 X366.000 Y376.500
G1 X363.000 Y370.500
G0 Z1
G0 X339.000 Y355.500
G1 Z0
G1 X333.000 Y358.500
G1 X336.000 Y352.500
G1 X309.000 Y355.500
G1 X315.000 Y352.500
G1 X321.000 Y355.500
G1 X330.000 Y355.500
G1 X339.000 Y358.500
G1 X309.000 Y358.500
G1 X318.000 Y352.500
G1 X333.000 Y352.500
G1 X312.000 Y358.500
G1 X312.000 Y352.500
G1 X321.000 Y358.500
G1 X330.000 Y358.500
G1 X339.000 Y355.500
G1 X327.000 Y355.500
G1 X321.000 Y352.500
G1 X315.000 Y352.500
G1 X309.000 Y355.500
G1 X336.000 Y352.500
G1 X339.000 Y358.500
G1 X309.000 Y358.500
G0 Z1
G0 X327.000 Y394.500
G1 Z0
G1 X321.000 Y403.500
G1 X327.000 Y403.500
G1 X327.000 Y397.500
G1 X321.000 Y400.500
G1 X330.000 Y403.500
G1 X330.000 Y394.500
G1 X339.000 Y397.500
G1 X345.000 Y391.500
G1 X342.000 Y385.500
G1 X348.000 Y388.500
G1 X333.000 Y391.500
G1 X339.000 Y394.500
G1 X333.000 Y397.500
G1 X345.000 Y394.500
G1 X339.000 Y388.500
G1 X345.000 Y385.500
G1 X327.000 Y400.500
G1 X321.000 Y403.500
G1 X321.000 Y397.500
G1 X333.000 Y400.500
G1 X324.000 Y403.500
G1 X327.000 Y394.500
G1 X348.000 Y391.500
G1 X336.000 Y397.500
G1 X330.000 Y397.500
G0 Z1
G0 X366.000 Y412.500
G1 Z0
G1 X372.000 Y415.500
G1 X369.000 Y421.500
G1 X363.000 Y418.500
G1 X369.000 Y412.500
G1 X357.000 Y436.500
G1 X354.000 Y430.500
G1 X354.000 Y436.500
G1 X363.000 Y433.500
G1 X366.000 Y424.500
G1 X372.000 Y412.500
G1 X369.000 Y418.500
G1 X357.000 Y427.500
G1 X354.000 Y433.500
G1 X360.000 Y430.500
G1 X360.000 Y421.500
G1 X357.000 Y430.500
G1 X360.000 Y436.500
G1 X387.000 Y343.500
G1 X393.000 Y343.500
G1 X390.000 Y334.500
G1 X396.000 Y328.500
G1 X390.000 Y331.500
G1 X390.000 Y322.500
G1 X396.000 Y313.500
G1 X399.000 Y319.500
G1 X396.000 Y325.500
G1 X393.000 Y316.500
G1 X411.000 Y307.500
G1 X408.000 Y313.500
G1 X402.000 Y292.500
G1 X408.000 Y298.500
G0 Z1
G0 X411.000 Y292.500
G1 Z0
G1 X399.000 Y268.500
G1 X405.000 Y262.500
G1 X402.000 Y253.500
G1 X396.000 Y253.500
G1 X381.000 Y265.500
G1 X381.000 Y292.500
G1 X378.000 Y298.500
G1 X387.000 Y292.500
G1 X381.000 Y280.500
G1 X393.000 Y274.500
G1 X399.000 Y292.500
G1 X387.000 Y280.500
G1 X396.000 Y265.500
G1 X405.000 Y256.500
G1 X417.000 Y259.500
G1 X420.000 Y268.500
G1 X411.000 Y271.500
G1 X408.000 Y283.500
G1 X402.000 Y289.500
G1 X417.000 Y286.500
G1 X417.000 Y277.500
G1 X423.000 Y283.500
G1 X420.000 Y295.500
G1 X417.000 Y289.500
G1 X396.000 Y307.500
G0 Z1
G0 X393.000 Y304.500
G1 Z0
G1 X396.000 Y310.500
G1 X381.000 Y307.500
G1 X384.000 Y313.500
G1 X375.000 Y307.500
G1 X387.000 Y295.500
G1 X381.000 Y292.500
G1 X393.000 Y262.500
G1 X387.000 Y259.500
G1 X384.000 Y265.500
G1 X393.000 Y256.500
G1 X405.000 Y259.500
G1 X423.000 Y283.500
G1 X414.000 Y283.500
G1 X405.000 Y322.500
G1 X405.000 Y328.500
G1 X417.000 Y337.500
G1 X414.000 Y325.500
G1 X411.000 Y316.500
G1 X411.000 Y307.500
G1 X414.000 Y343.500
G1 X414.000 Y337.500
G1 X399.000 Y304.500
G1 X399.000 Y280.500
G1 X411.000 Y256.500
G1 X423.000 Y274.500
G0 Z1
G0 X402.000 Y289.500
G1 Z0
G1 X402.000 Y283.500
G1 X414.000 Y277.500
G1 X423.000 Y271.500
G1 X423.000 Y277.500
G1 X417.000 Y295.500
G1 X420.000 Y304.500
G1 X426.000 Y295.500
G1 X426.000 Y301.500
G1 X432.000 Y322.500
G1 X438.000 Y331.500
G1 X432.000 Y328.500
G1 X426.000 Y313.500
G1 X417.000 Y262.500
G1 X408.000 Y253.500
G1 X414.000 Y265.500
G1 X417.000 Y259.500
G1 X423.000 Y268.500
G1 X399.000 Y265.500
G1 X399.000 Y271.500
G1 X390.000 Y265.500
G1 X381.000 Y268.500
G1 X381.000 Y289.500
G1 X396.000 Y292.500
G1 X396.000 Y298.500
G1 X393.000 Y304.500
G1 X393.000 Y313.500
G1 X390.000 Y319.500
G1 X399.000 Y316.500
G1 X414.000 Y295.500
G1 X423.000 Y316.500
G1 X447.000 Y364.500
G1 X492.000 Y352.500
G1 X492.000 Y358.500
G1 X480.000 Y358.500
G1 X468.000 Y355.500
G1 X474.000 Y352.500
G1 X486.000 Y352.500
G1 X495.000 Y358.500
G1 X492.000 Y352.500
G1 X495.000 Y358.500
G1 X477.000 Y358.500
G1 X471.000 Y352.500
G1 X465.000 Y355.500
G1 X471.000 Y358.500
G1 X468.000 Y352.500
G1 X474.000 Y358.500
G1 X483.000 Y352.500
G1 X477.000 Y352.500
G1 X471.000 Y355.500
G1 X489.000 Y352.500
G1 X483.000 Y355.500
G1 X495.000 Y355.500
G0 Z1
G0 X477.000 Y313.500
G1 Z0
G1 X483.000 Y313.500
G1 X474.000 Y310.500
G1 X483.000 Y310.500
G1 X462.000 Y316.500
G1 X468.000 Y319.500
G1 X456.000 Y322.500
G1 X465.000 Y325.500
G1 X456.000 Y325.500
G1 X480.000 Y316.500
G1 X411.000 Y322.500
G1 X417.000 Y337.500
G1 X414.000 Y355.500
G1 X420.000 Y352.500
G1 X411.000 Y355.500
G1 X405.000 Y349.500
G1 X411.000 Y352.500
G1 X420.000 Y355.500
G1 X414.000 Y349.500
G1 X402.000 Y355.500
G1 X387.000 Y355.500
G1 X390.000 Y349.500
G1 X384.000 Y352.500
G1 X387.000 Y343.500
G1 X387.000 Y337.500
G1 X396.000 Y334.500
G1 X393.000 Y325.500
G1 X390.000 Y319.500
G0 Z1
G0 X405.000 Y325.500
G1 Z0
G1 X411.000 Y331.500
G1 X411.000 Y337.500
G1 X414.000 Y343.500
G1 X408.000 Y334.500
G0 Z1
G0 X405.000 Y355.500
G1 Z0
G1 X399.000 Y355.500
G1 X408.000 Y349.500
G1 X396.000 Y349.500
G1 X384.000 Y355.500
G1 X387.000 Y349.500
G1 X414.000 Y355.500
G1 X420.000 Y352.500
G1 X405.000 Y355.500
G1 X417.000 Y349.500
G1 X390.000 Y355.500
G1 X411.000 Y343.500
G1 X408.000 Y337.500
G1 X408.000 Y319.500
G1 X402.000 Y307.500
G1 X408.000 Y292.500
G1 X408.000 Y286.500
G1 X399.000 Y253.500
G1 X381.000 Y313.500
G1 X375.000 Y325.500
G1 X381.000 Y319.500
G1 X369.000 Y319.500
G1 X366.000 Y346.500
G1 X360.000 Y343.500
G1 X366.000 Y355.500
G1 X357.000 Y349.500
G1 X366.000 Y340.500
G1 X366.000 Y334.500
G1 X372.000 Y331.500
G1 X369.000 Y343.500
G1 X363.000 Y340.500
G1 X363.000 Y334.500
G1 X390.000 Y295.500
G1 X396.000 Y292.500
G0 Z1
G0 X390.000 Y289.500
G1 Z0
G1 X387.000 Y283.500
G1 X399.000 Y310.500
G1 X402.000 Y304.500
G1 X399.000 Y298.500
G1 X396.000 Y310.500
G1 X390.000 Y325.500
G1 X396.000 Y337.500
G1 X393.000 Y343.500
G1 X393.000 Y337.500
G1 X387.000 Y340.500
G1 X390.000 Y334.500
G1 X399.000 Y325.500
G1 X393.000 Y322.500
G1 X393.000 Y313.500
G1 X396.000 Y319.500
G1 X408.000 Y277.500
G1 X420.000 Y298.500
G1 X423.000 Y292.500
G1 X417.000 Y301.500
G1 X423.000 Y322.500
G1 X429.000 Y328.500
G1 X447.000 Y355.500
G1 X447.000 Y349.500
G1 X441.000 Y343.500
G1 X441.000 Y379.500
G1 X432.000 Y382.500
G1 X432.000 Y391.500
G1 X438.000 Y382.500
G1 X438.000 Y373.500
G1 X435.000 Y379.500
G1 X447.000 Y367.500
G1 X441.000 Y379.500
G0 Z1
G0 X432.000 Y418.500
G1 Z0
G1 X435.000 Y412.500
G1 X432.000 Y418.500
G1 X444.000 Y421.500
G1 X447.000 Y433.500
G1 X441.000 Y433.500
G1 X441.000 Y421.500
G1 X447.000 Y427.500
G1 X438.000 Y424.500
G1 X438.000 Y415.500
G1 X435.000 Y421.500
G1 X432.000 Y415.500
G1 X438.000 Y412.500
G1 X441.000 Y418.500
G1 X438.000 Y430.500
G1 X444.000 Y436.500
G1 X450.000 Y436.500
G1 X438.000 Y427.500
G1 X450.000 Y433.500
G1 X417.000 Y397.500
G1 X411.000 Y391.500
G1 X399.000 Y391.500
G1 X411.000 Y400.500
G1 X426.000 Y385.500
G1 X420.000 Y388.500
G1 X429.000 Y391.500
G1 X435.000 Y385.500
G1 X393.000 Y400.500
G1 X387.000 Y397.500
G1 X402.000 Y400.500
G1 X360.000 Y376.500
G1 X369.000 Y340.500
G1 X411.000 Y265.500
G1 X405.000 Y253.500
G1 X390.000 Y268.500
G1 X384.000 Y262.500
G1 X396.000 Y256.500
G1 X381.000 Y274.500
G1 X387.000 Y271.500
G1 X384.000 Y277.500
G1 X390.000 Y289.500
G1 X396.000 Y283.500
G0 Z1
G0 X393.000 Y280.500
G1 Z0
G1 X399.000 Y277.500
G1 X396.000 Y271.500
G1 X405.000 Y280.500
G1 X417.000 Y271.500
G1 X414.000 Y280.500
G1 X408.000 Y274.500
G1 X405.000 Y265.500
G1 X381.000 Y298.500
G1 X369.000 Y322.500
G1 X321.000 Y316.500
G1 X330.000 Y310.500
G1 X342.000 Y316.500
G1 X330.000 Y313.500
G1 X339.000 Y325.500
G1 X348.000 Y325.500
G1 X339.000 Y322.500
G1 X345.000 Y322.500
G1 X336.000 Y316.500
G1 X330.000 Y319.500
G1 X327.000 Y310.500
G1 X321.000 Y310.500
G1 X324.000 Y316.500
G1 X333.000 Y319.500
G1 X342.000 Y325.500
G1 X348.000 Y322.500
G1 X342.000 Y316.500
G0 Z1
G0 X390.000 Y298.500
G1 Z0
G1 X387.000 Y304.500
G1 X381.000 Y304.500
G1 X357.000 Y361.500
G1 X357.000 Y370.500
G1 X363.000 Y364.500
G1 X369.000 Y376.500
G1 X369.000 Y388.500
G1 X375.000 Y391.500
G1 X381.000 Y397.500
G1 X393.000 Y391.500
G1 X399.000 Y394.500
G1 X423.000 Y397.500
G1 X438.000 Y385.500
G1 X435.000 Y379.500
G1 X444.000 Y376.500
G1 X444.000 Y364.500
G1 X447.000 Y358.500
G1 X438.000 Y364.500
G1 X438.000 Y346.500
G1 X441.000 Y340.500
G1 X447.000 Y352.500
G1 X441.000 Y355.500
G1 X438.000 Y376.500
G1 X483.000 Y397.500
G1 X465.000 Y397.500
G1 X474.000 Y403.500
G1 X483.000 Y403.500
G1 X474.000 Y400.500
G1 X459.000 Y388.500
G1 X459.000 Y394.500
G1 X465.000 Y391.500
G1 X483.000 Y400.500
G1 X477.000 Y400.500
G1 X456.000 Y391.500
G1 X459.000 Y385.500
G1 X465.000 Y388.500
G1 X471.000 Y394.500
G1 X456.000 Y388.500
G1 X459.000 Y394.500
G1 X477.000 Y403.500
G1 X483.000 Y400.500
G1 X474.000 Y394.500
G1 X474.000 Y400.500
G1 X483.000 Y403.500
G0 Z1
G0 X405.000 Y439.500
G1 Z0
G1 X399.000 Y442.500
G1 X399.000 Y433.500
G1 X405.000 Y424.500
G1 X399.000 Y421.500
G1 X405.000 Y448.500
G1 X399.000 Y448.500
G1 X405.000 Y445.500
G1 X399.000 Y448.500
G1 X402.000 Y442.500
G1 X399.000 Y436.500
G1 X399.000 Y424.500
G1 X405.000 Y421.500
G1 X405.000 Y430.500
G1 X402.000 Y436.500
G1 X399.000 Y445.500
G1 X405.000 Y442.500
G1 X402.000 Y427.500
G1 X399.000 Y421.500
G1 X399.000 Y439.500
G1 X402.000 Y445.500
G1 X405.000 Y427.500
G1 X402.000 Y421.500
G1 X405.000 Y448.500
G1 X399.000 Y448.500

G0 Z1
G0 X.000 Y.000

(Distance Moved: 9077.798 mm)
(Distance Moved (Pen Up): 1506.937 mm)
(Distance Moved (Pen Down): 7570.860 mm)
(Points Plotted: 519 points)
(Pen Lifted: 16 times)
(Pen Dropped: 15 times)
(Min X: .000 Max X: 495.000)
(Min Y: .000 Max Y: 448.500)
